!!!COM: L van Beethoven
!!!OTL: String Quartet No12 Op127
!!!OMV: op127_no12_mov2.mxl
**kern	**dynam
*I"Violin I	*
*I'Vln. I	*
*clefG2	*
*k[b-e-a-d-]	*
*A-:	*
*M12/8	*
!LO:TX:a:B:t=Adagio ma non troppo e molto cantabile	!
*MM60	*
!LO:TX:t=[quarter]=60	!
[8EE-	.
4EE-]	.
[8EE-	.
=1	=1
4EE-_	.
8EE-_ [8D-	.
4EE-_ 4D-]	.
8EE-_ [8D-	.
4EE-_ 4D-_	.
8EE-_ 8D-_ [8B-	.
4EE-_ 4D-_ 4B-]	.
8EE-_ 8D-_ [8B-	.
=2	=2
4EE-_ 4D-_ 4B-_	.
8EE-_ 8D-_ 8B-_ [8d-	pp
4EE-_ 4D-_ 4B-_ 4d-]	.
8EE-_ 8D-_ 8B-_ [8d-	.
4EE-] 4D-] 4B-] 4d-]	.
!LO:TX:b:i:t=cresc.	!
[8EE- [8D- [8B- 8e-	.
4EE-] 4D-] 4B-] 4f	.
8EE- 8D- 8B- 8g	.
=3	=3
4.EE- [4.C 4.A- [4.a-	p
[4AA- 4C_ [4c 4a-]	.
8AA-_ 8C_ 8c] 8b-	.
4AA-_ 4C_ [4c [4e- 4cc	.
8AA-_ 8C_ 8c_ 8e-_ 8dd-	.
4AA-_ 4C_ 4c_ 4e-_ 4ee-	.
8AA-] 8C] 8c] 8e-] 8ff	.
=4	=4
[4GG [4D- [4B- [4e- 4ff	.
8GG_ 8D-] 8B-_ 8e-_ 8ee-	.
4GG_ [4E- 4B-_ 4e-_ 4dd-	.
8GG] 8E-_ 8B-] 8e-] 8b-	.
[4BB- 4E-_ [4d- [4e- 4g	.
8BB-_ 8E-] 8d-_ 8e-_ [8ee-	.
8BB-L_ [8E- 8d-_ 8e-_ 8ee-]	.
8BB-_ 8E-_ 8d-_ 8e-_ 8dd-	.
8BB-J] 8E-] 8d-] 8e-] 8b-	.
=5	=5
[4C [4E- [4c [4e- 4a-	.
8C_ 8E-_ 8c] 8e-] 8aa-	.
4C_ 4E-_ [4A- 4gg	.
8C] 8E-] 8A-_ 8ff	.
[4C [4E- 4A-_ 4ff	.
8C] 8E-_ 8A-] 8ee-	.
4E-_ [4A- [4c 4dd-	.
8E-] 8A-] 8c] 8cc	.
=6	=6
[4.E- [4.A- 4.c [4.ee-	.
4E-_ 4A-_ [4e- 4ee-]	.
8E-T_ 8A-] 8e-_ 8cc	.
4E-] 4G 4e-] 4b-	.
[8E- 8G [8ee-	.
4E-] 4F 4A- 4ee-]	.
8E- 8G 8B- 8dd-	.
=7	=7
[4E- [4A- [4c 4cc	.
8E-] 8A-_ 8c] 8bb-	.
4F 4A-] 4a- 4aa-	.
8G 8B- 8e- 8gg	.
[4A- [4c [4e- 4ff	.
8A-_ 8c_ 8d- 8e-_ 8ee-	.
4A-_ 4c_ 4e-_ 4dd-	.
8A-] 8c] 8e-] 8f 8cc	.
=8	=8
[4G [4B- [4e- 4f 4dd-	.
8G_ 8B-_ 8e-_ 8ccc	.
4G_ 4B-_ 4d- 4e-_ 4bb-	.
8G] 8B-] 8e-] 8gg	.
4G [4B- [4d- [4e- 4ee-	.
8B-] 8d-] 8e-_ 8gg	.
[8GL 8d- 8e-] [8bb-	.
8G_ 8B- 8d- 8bb-]	.
8GJ] 8B- 8e- 8ddd-	.
=9	=9
[4A- 4c 4ccc	.
8A-_ 8a- 8cc 8ee-	.
4A-_ 4g 4b- 4een	.
8A-] 8f 8a- 8ff	.
[4B-^ 4f 4a- 4ff	.
8B-] 8e-X 8g 8gg	.
[4B-^ 4e- 4g 4gg	.
8B-] 8dn 8f 8aa-	.
=10	=10
[4.E- [4.B- 4.dn 4.f 4.aa-	.
8E-L_ 8B-_ 8c 8dn 8e- [8a- [8ff	.
8E-_ 8B-_ 8f 8a-] 8ff]	.
8E-J] 8B-] 8e- 8g 8gg	.
4E- 4G 4B- 4e- 4g 4gg	.
8BB-' 8E- 8d-X 8e-	pp
4BB-' 4E- 4d- 4g	.
8AA-' 8E- 8d- 8a-	.
=11	=11
[4GG' 4E- 4d- [4b-	.
8GG'_ 8E- 8d- 8b-_	.
4GG'_ 4E- 4d- 4b-]	.
8GG'] 8E- 8d- 8a-	.
[4BB-' 4E- 4d- 4a-	.
8BB-'_ 8E- 8d- 8g	.
4BB-'_ 4E- 4d- 4a-	.
8BB-'] 8E- 8d- 8b-	.
=12	=12
[4AA-' 4E- 4c 4b- [4cc	.
8AA-'_ 8E- 8c 8cc_	.
4AA-'_ 4E- 4c 4cc]	.
8AA-'] 8E- 8d- 8b-	.
[4C' 4E- 4e- 4b-	.
8C'_ 8E- 8e- 8a-	.
4C'_ 4E- 4e- 4b-	.
8C'_ 8E- 8e- 8cc	.
=13	=13
4C'] 4E- 4e- [4dd-	.
8BB-' 8E- 8d- 8dd-]	.
4AA-' 4E- 4c 4dd-	.
8GG' 8E- 8B- 8ee-	.
4FF' 4E- 4A- 4ff	.
8EE-' 8E- 8B- 8gg	.
4DDn' 4E- 4B- 4f 4aa-	.
8DD-X' 8E- 8B- 8g 8bb-	.
=14	=14
4CC 4E- 4c 4a- 4aa-	.
8DD- 8F 8c 8ee-	.
4EE- 4G 4B- 4dd-	.
8EE- 8E- 8G 8d- 8b-	.
4AA- 4E- 4A- 4c 4a-	.
8E-' 8G 8B-	.
[8E-L [8G [8B- [8e-	.
8E-'] 8G] 8B-] 8e-]	.
8E-'J 8A- 8c 8f	.
=15	=15
4E-' [4B- 4d- [4g	.
8E-' 8B-_ 8d- 8g_ 8ee-	.
4E-' 4B-] 4d- 4g] 4gg	.
8E-' 8A- 8d- 8f 8aa-	.
4E-' 4A- 4d- 4f 4bb-	.
8E-' 8G 8d- 8e-	.
4E-' 4A- 4d- 4f	.
8E-' 8B- 8d- 8g	.
=16	=16
4E-' 4B- [4c [4a-	.
8E-' 8c_ 8a-_ 8ee-	.
4c'] 4e- 4a-] 4aa-	.
8E-' 8B- 8d- 8g 8bb-	.
4E- 4B- 4c 4e- [4ccc	.
8E- 8A- 8c [8a- 8ccc]	.
[8E-L [8G-X 8a-] [8b-	.
8E-] 8G-] 8B- 8b-]	.
8E-J 8G-X 8A- 8cc	.
=17	=17
!LO:TX:b:i:t=cresc.	!
4D- 4F 4A- [4dd-	.
8E- 8G-X [8a- 8dd-_	.
4D- 4F 4a-] 4dd-]	.
8C 8E- 8a- 8ee-	.
4BB- 4D- 4a- 4ff	.
8FF-X 8d- 8b- 8ggn	.
4EE- 4c 4cc 4aa-	.
8DDn 8Fn 8A- 8b- 8bb-	.
=18	=18
[4EE- 4A- 4cc 4aa-	.
8EE-_ 8An 8c 8ee-	.
4EE-] 4B- 4d- 4dd-	.
8E- 8d- 8g 8b-	.
[4E- [4A-X 4a-X	p
8E-_ 8A-] 8e- 8an	.
4E-] 4G 4d- 4b-	.
8DD- [8E- 8g 8b-	.
=19	=19
!LO:TX:b:i:t=dim.	!
4CC 4E-] 4A- 4g-X 4ee-	.
8EE- 8G-X 8c 8a-	.
4DD- 4F 4A- 4f 4dd-	.
8FF-X 8A- 8d- 8a-	.
4DDn 4Fn 4A- 4a- 4cc	.
!LO:TX:b:i:t=cresc.	!
8EE- 8A- 8c 8a-	.
4E- 4A- 4c 4e-	.
8E- 8Gn 8B- 8d-X 8gn	.
=20	=20
4E- 4A- 4c 4e- 4a-	p
8r	.
4EE- 4E- 4G 4d- 4e- 4b-	pp
8r	.
4AA- 4E- 4A- 4c 4e- 4a-	.
[8G [8ee-	p
4E- 4G] 4ee-]	.
16FLL 16A- [16e- 16ddn	.
16GJJ 16B- 16e-] 16dd-X	.
=21	=21
4G 4B- 4e- 4dd-	.
[16A-LL [16c 16f [16cc	.
16A-JJ_ 16c_ 16g 16cc]	.
8.A-L_ 8.c_ 8.g	.
16A-L] 16c] [16a-	.
16B- 16d- 16a-_	.
16cJJ 16e- 16a-_	.
[8cL [8e- 8a-]	.
16cL_ 16e-_ 16g	.
16c] 16e-] 16a-	.
16d- 16b-	.
16cJJ 16e- 16cc	.
[8FL [8c 8e- [8an [8cc	.
8F_ 8c_ [8g-X 8a] 8cc]	.
16FL_ 16c_ 16g-] 16an	.
16FJJ] 16c] 16f 16cc	.
=22	=22
8AnL 8c 8f	.
8F 8e- 8an	.
[16B-L [16d- 16b-	.
16B-JJ_ 16d-_ 16bb-	.
8B-L] 8d-] [8bb-	.
8B- 8dn 8bb-]	.
16cL 16e- 16aan	.
16dnJJ 16f 16aa-X	.
[8dnL 8f [8aa-	.
8d] [8b- 8aa-]	.
[16e-L 16b-_ [16gg	.
16e-JJ] 16b-] 16gg_ 16eee-	.
[16e-LL [16gn 16gg] [16eee-	.
16e-] 16g] [16b- 16eee-_	.
16e- 16g 16b-_ 16eee-_	.
16f 16a-X 16b-_ 16eee-]	.
[16g 16b-_ 16dddn	.
16gJJ] 16b-] 16ddd-X	.
=23	=23
[16enLL [16g 16bn [16ccc	.
16e] 16g] [16cc 16ccc]	.
[16f [16a- 16cc_ 16aa-	.
16f] 16a-] 16cc_ 16gg	.
16g 16b-X 16cc_ [16ff	.
16a-'JJ 16cc] 16ff]	.
[16FLL [16A- 16een	.
16F] 16A-] 16ff	.
16ff 16aa-	.
16ee-X 16gg	.
16G 16B-X [16dd- [16ff	.
16A-'JJ 16c 16dd-] 16ff]	.
[16GLL [16B- 16cc	.
16G'] 16B-] 16dd-	.
16dd- 16ff	.
16cc 16ee-	.
16A- 16c [16b- [16dd-	.
16B-'JJ 16d- 16b-] 16dd-]	.
[16A-LL [16c 16bn	.
16A-'] 16c] 16cc	.
16cc 16ee-	.
16b-X 16dd-	.
16B-X 16d- [16a- [16cc	.
16c'JJ 16e-X 16a-] 16cc]	.
=24	=24
!LO:TX:b:i:t=cresc.	!
[8e-L [8a- [8cc	.
8c 8e-] 8a-] 8cc]	.
8A-J 8a- 8cc 8ee-	.
8E-L 8cc 8ee- 8aa-	.
8C 8ee- 8aa- 8ccc	.
8AA-J 8ee- 8ccc 8eee-	.
!LO:TX:a:i:t=dim.	!
8AA-L 8ee- [8bb- 8eee-	.
[16GGL [16E- 16bb-_	.
16GG] 16E-] 16b- 16bb-]	.
16FFT 16F 16a- [16bb-	.
16EE-TJJ 16G 16g 16bb-]	.
!LO:TX:a:i:t=cresc.	!
[8EE-L [8G 8g 8aan 8bb- 8ddd-	.
8EE-] 8G] 8dd- 8ee-	.
16FFTL 16A-X [16e- [16dd-	.
16GGtJJ 16B- 16e-] 16dd-]	.
=25	=25
[8E-L 8B- 8d- 8dn [8e-	.
8E-] 8A- 8c 8e-_	.
[16D-XL 16F [16B- 16e-_	.
16D-JJ] 16G 16B-] 16e-]	.
[8D-L [8G [8B- 8e-	.
8D-] 8G] 8B-] 8ee-	.
16CL [16A- [16ee-	.
16A-JJ] 16a- 16cc 16ee-_	.
8a-L [8cc 8ee-_	.
8cc] 8ee-]	.
16cc-XL 16ddn 16ff	.
16b-JJ 16dd-X 16gg	.
4b- 4dd- 4gg	.
8FF 8a- 8ccn 8aa-	.
=26	=26
4FF 4c 4a-	.
16GGLL 16A- 16f	.
16AA-JJ 16G 16e-	.
8AAnL 8G-X [8e-	.
[8BB- [8F 8e-]	.
8BB-J] 8F] 8d- [8dd-	.
8FL [8b- 8dd-_	.
8B- 8b-] 8dd-]	.
[16B-L 16c 16ee-	.
16B-JJ] 16d- 16ff	.
!LO:TX:b:i:t=cresc.	!
[8.CCL [8.BB- [8.C [8.d- 8.gn 8.b- 8.ff	.
16CCL_ 16BB-] 16C_ 16d-] 16g 16een	.
16CC_ 16AA-X 16C_ 16c 16f 16ff	.
16CCJJ] 16GG 16C] 16B- 16en 16gg	.
=27	=27
4EEn 4D- 4G 4d- 4bb-	.
16FFLL 16C 16A- 16c 16aa-	.
[16FFJJ [16a- [16cc [16aa-	.
4FF] 4a-] 4cc] 4aa-]	.
16AA-LL 16c 16cc 16ff	.
[16AA-JJ [16c [16cc [16ff	.
4AA-] 4c] 4cc] 4ff]	.
16AAnLL 16g-X 16cc 16ee-X	.
[16AAnJJ [16g-X [16cc [16ee-	.
4AA] 4g-] 4cc] 4ee-]	.
16BB-LL 16f 16a-X 16ddn	.
[16EE-XJJ 16C-X [16f [16a- [16dd	.
=28	=28
8EE-L_ [8C-X 8f] 8a-] 8ddn]	.
8EE-_ 8C-_ [8A- [8f 8dddn	.
8EE-J_ 8C-_ 8A-_ 8f_ 8fff	.
8EE-L_ 8C-_ 8A-_ 8f_ 8aaa-	.
8EE-_ 8C-_ 8A-] 8f] 8fff	.
8EE-J] 8C-] 8F [8A- 8dddn	.
[8EE-L [8BB- 8Dn 8A-] 8fff	.
8EE-] 8BB-] 8E- 8G 8eee-	.
8EE-J [8E- [8G 8ddd-X	.
!LO:TX:a:i:t=cresc.	!
[8EE-L 8E-] 8G] 8bb-	.
8EE-] 8Gn 8g 8gg	.
16GG'L 16B- 16b- [16ff	.
16AA-'JJ 16cn 16ccn 16ff]	.
=29	=29
[8AAnL [8c [8cc 8ff	sf
8AA] 8c] 8cc] 8ee-	.
[8BB-J 8d- 8dd- 8ee-	.
4BB-] 4E- 4G 4dd-	.
16AA-X'LL 16F 16A-X 16cc	.
16GG'JJ 16G 16B- 16b-	.
[8FFL 8A- 8c [8a-X	.
8FF] 8B- 8d- 8a-]	.
[16EE-L [16B- [16d- 16g	.
16EE-JJ] 16B-] 16d-] 16ff	.
[8EE-L 8B- 8d- 8ff	.
16EE-L] [16G [16B- [16ee-	.
16EE-' 16G] 16B-] 16ee-]	.
16AA-' [16E- 16c 16cc	.
16BB-'JJ 16E-] 16d- 16b-	.
=30	=30
[8BBnL [8E- 8dn [8g	sf
8BB] 8E-] 8e- 8g]	.
[16CL [16E- [16e- 16a-	p
16CJJ] 16E-] 16e-_ 16ee-	.
8cL 8e-] 8ee-	.
[16A-L [16c 16ff	.
16A-] 16c] 16ee-	.
16B-X 16d-X 16dd-X	.
16cJJ 16e- 16cc	.
8d-L 8f-X 8b-X	.
16d-L 16f-X [16b--	.
16d- 16f-X 16b--]	.
[16A- [16c 16e- 16a-	.
16A-JJ_ 16c_ [16ee- 16gg-X	.
8A-L_ 8c] 8ee-] [8gg-	.
16A-L_ [16g-X [16a- 16gg-]	.
16A-] 16g-] 16a-] 16bb-X	.
16B-X 16fn 16dd- 16aa-	.
16cJJ 16e- 16ee- 16gg-X	.
=31	=31
!LO:TX:a:i:t=cresc.	!
8cL 8e- 8b-- 8gg-X	.
8.d- 8.f 8.a- 8.ff	.
16e-Jk 16g-X 16a- 16cc 16ee-	.
8e-L 8g-X 8a- 8cc 8eee-	.
8.f 8.a- 8.cc-X 8.dddn	.
16f-XJk 16gn 16b-X 16ddd-X	.
8f-XL 8g 8b- 8ddd-	.
8.e- 8.a- 8.cccn	.
16CJk 16e- 16a- 16ccc	.
8CL 8e- 8a- 8ccc	.
8.D-X 8.fn 8.b- 8.bb-X	.
16D-Jk 16f 16bn 16aa-	.
=32	=32
8D-L [8f 8bn [8aa-	.
8C 8f] 8cc 8aa-_	.
[16D-L [16A- [16f 16a- 16aa-]	.
16D-JJ] 16A-] 16f] 16bb-X	.
[16E-LL 16A- [16e- 16bbn	.
16E-J_ 16e-] 16a- 16ccc	.
8E-] [8d- [8b-X 8bb-X	.
[16E-L 16d-] 16b-] [16gg	.
16E-JJ] 16B-X 16dd- 16gg]	.
8E-L 8B- 8dd- 8gg	.
[16A-L 16cc 16aa-	.
16A-] 16e- 16cc	.
16AA- 16E- 16c 16ff	.
16AAnJJ 16C 16e- 16ee-	.
!LO:TX:b:i:t=cresc.	!
8AAnL 8C 8e- [8ee-	.
[16BB-XL 16D- 16d- 16ee-]	.
16BB-] [16E- 16d- 16gg	.
16GG' 16E-] 16B- 16gg	.
16FF'JJ 16E- 16A-X 16aa-X	.
=33	=33
!LO:TX:a:t=sf	!
8FFL [8E- 8G [8aan	.
8EE- 8E-_ [8G [8g 8aa]	.
16EE-L 16E-] 16G_ 16g_ [16bb-	.
16D-JJ 16F-X 16G_ 16g_ 16bb-]	.
[16D-LL [16F-X 16G_ 16g] [16bb-	.
16D-_ 16F-_ 16G] 16fn 16bb-_	.
16D-_ 16F-_ [16f 16bb-]	.
32D-L_ 32F-_ 32f_ 32ccc	.
32D-J] 32F-] 32f] 32bb-	.
16C 16E- 16e- 16aa-X	.
16BB-JJ 16D- 16d- 16gg	.
[8AA-XL [8C [8c 8ffn	.
8AA-] 8C] 8c] 8ee-	.
[16GGL [16D- [16B- 16ee-	.
16GGJJ] 16D-_ 16B-_ 16eee-	.
!LO:TX:a:i:t=cresc.	!
8.D-L_ 8.B-_ [8.g 8.eee-	.
16D-L] 16B-] 16g] 16gg	.
16C' 16A-X 16g 16aa-	.
16D-'JJ 16G 16d- 16bb-	.
=34	=34
8.D-L 8.G [8.e- 8.bbn	sf
16CL 16A- 16e-] 16ccc	.
16C [16E- 16A- [16ccc	.
16E-JJ] 16A- 16c 16ccc]	.
[16E-LL 16A- 16c 16ccc	.
16E-_ 16G 16d- 16bbn	.
16E-_ 16A- 16c 16ccc	.
16E-] 16A- 16cc	.
16D- 16B-X 16b-X 16dd-	.
16CJJ 16c 16a- 16ee-	.
[16BB-XLL [16d- [16e- 16ff	.
16BB-_ 16d-] 16e-] 16ee-	.
16BB-_ [16d- [16e- 16ff	.
16BB-] 16d-] 16e-] 16gg	.
[16AA- [16c [16e- 16gg	.
16AA-JJ] 16c] 16e-] 16aa-	.
[16GG-XLL 16c 16e- 16aa-	.
16GG-] 16B- 16d- 16bb-X	.
[16G-X 16A- 16c 16bb-	.
16G-] 16c 16e- 16aa-	.
16F 16d- 16fn 16bb-	.
16E-JJ 16e- 16g-X 16ccc	.
=35	=35
!LO:TX:a:i:t=cresc.	!
8E-L 8A- 8g-X 8ccc	.
8.D- 8.f 8.a- 8.ddd-	.
16CJk 16e- 16a- 16eee-	.
8cL 8e- 8a- 8eee-	.
8.B- 8.dn 8.a- 8.fff	.
16F-XJk 16d-X 16b- 16gggn	.
8F-XL 8d- 8b- 8ggg	.
8.E- 8.c 8.a- 8.aaa-	.
16EE-Jk 16C 16a- 16aaa-	.
8EE-L 8c 8a- 8aaa-	.
8.DD-X 8.Fn 8.A- 8.a- 8.bbb-	.
16DD-Jk 16F 16A- 16ff 16bbbn	.
=36	=36
8DD-L 8F 8A- [8ff 8bbbn	.
8CC 8F 8A- 8ff_ 8cccc	.
[16DD-L [16F 16ff] 16aaa-	.
16DD-JJ_ 16F_ 16dd- 16fff	.
8DD-L] 8F] 8cc 8eee-	p
8.EE- 8.G 8.b-X 8.ddd-	.
[16EE-Jk 16d- 16gn 16bb-X	.
8EE-L] 8c 8e- 8aa-	.
[8E- [8c [8a- 8cc	.
16E-L] 16c] 16a-]	.
16E-JJ 16c 16e- 16an	.
[8E-L 8c 8e- 8a	.
16E-L] [16G [16d- [16b-	.
16E- 16G] 16d-_ 16b-_	.
16E- 16B-X 16d-] 16b-]	.
16D-JJ 16B- 16g 16ee-	.
=37	=37
!LO:TX:b:i:t=dim.	!
[8CL 8e- [8g-X [8ee-	.
8C] 8E- 8g-] 8ee-]	.
16E-L 16G-X 16c 16a-	.
16CJJ 16E- 16g-X 16ee-	.
4D- 4F 4f 4dd-	.
16F-XLL 16A- 16d- 16a-	.
16D-JJ 16F-X [16a- 16dd-	.
4E- 4A- 4a-] 4cc	.
16A-LL 16c 16e- 16a-	.
[16E-JJ 16A- 16c 16cc	.
!LO:TX:b:i:t=cresc.	!
4E-] [4B- [4d- 4e-	.
16GnLL 16B-] 16d-] 16e-	.
16enJJ 16b- 16dd- 16gg	.
=38	=38
8fn 8b- 8ddn 8aa-	p
8.r	.
16f [16b- 16ddn 16aa-	pp
8g 8b-] 8dd-X 8bb-	.
8.r	.
16g 16b- 16dd- 16bb-	.
8a-L 8cc 8ee-	.
16E-'Jk	.
16r	.
16Dn'LL 16E-	.
[16e-JJ	.
16D-X'LL 16E- 16e-]	.
32fL	.
32gJJJ	.
4r	.
=39	=39
*M4/4	*
*met(c)	*
!LO:TX:a:B:t=Andante Con moto	!
*MM80	*
!LO:TX:t=[quarter]=80	!
16C'LL 16E- 16a-	.
[16dnJ	.
16AA-'L 16C 16E- 16d]	.
32e-L	.
32bnJJJ	.
16AA-'LL 16C 16E- 16cc	.
[16gJ	.
16AA-'L 16C 16E- 16g]	.
32a-L	.
32ccJJJ	.
16AA-'LL 16C 16E- 16ee-	.
16cJ [16ccc	p
16AA-'L 16C 16E- 16ccc]	.
[32ccL 32bb-X	.
32ccJJJ] 32aa-	.
16AA-'LL 16C 16E- 16gg	.
16cJ [16gg-X	.
16AA-'L 16C 16E- 16gg-]	.
[32ee-L 32ff	.
32ee-JJJ]	.
=40	=40
16BB-'LL 16D- 16E- 16dd-	.
16GJ [16ff	.
16BB-L 16D- 16E- 16ff]	.
[32gL [32dd- 32een	.
32gJJJ] 32dd-] 32ee-X	.
16BB-'LL 16D- 16E-X 16ddn	.
16gJ [16dd-X	.
16BB-L 16D-X 16E- 16dd-]	.
32b-L [32gg	.
32a-JJJ 32gg]	.
16BB-LL 16D- 16E- 16g	.
16GJ [16ddd-X	.
16BB-L 16D- 16E- 16ddd-]	.
[32gL 32ccc	.
32gJJJ] 32bb-	.
16BB-'LL 16D- 16E- 16aa-	.
16ee-J [16gg	.
16BBnL 16Dn 16E- 16gg]	.
[32ee-L 32ff	.
32ee-JJJ] 32een	.
=41	=41
16C'LL 16E- 16ee-	.
16cJ 16e- [16aa-	.
16CL 16A- 16aa-]	.
32ee-L [32aa-	.
32eenJJJ 32aa-]	.
16D-'LL 16A- 16ff	.
16fJ [16ff	.
16A-L 16d- 16ff]	.
[32fL 32een	.
32fJJJ] 32ee-X	.
16F'LL 16A- 16dd-	.
16e-XJ [16ee-	.
16GL 16B- 16ee-]	.
32ddnL [32ee-	.
32dd-XJJJ 32ee-]	.
16A-'LL 16c 16cc	.
16e-J [16ddd-X	.
16B-L 16d-X 16ddd-]	.
[32ee-L 32bb-	.
32ee-JJJ] 32gg	.
=42	=42
16c'LL 16e- 16aa-	.
16cJ 16e- [16ccc	.
16E-L 16A- 16c 16e- 16ccc]	.
[32cL [32a- 32bb-	.
32cJJJ] 32a-] 32aa-	.
16E-LL 16A- 16c 16e- 16gg	.
[32e-L [32cc 32aa-	.
32e-JJ] 32cc] 32bb-	.
16E-L 16A- 16c 16e- 16aa-	.
[32ccL 32ee- [32aa-	.
32ccJJJ] 32aa-]	.
16E-'LL 16G 16B- 16e- 16b-	.
16E-'J 16G 16B- 16e- [16ddd-	.
16E-'L 16G 16e- 16ddd-]	.
[32E-L [32G [32d- [32ee- 32ccc	.
32E-'JJJ] 32G] 32d-] 32ee-] 32bb-	.
!LO:TX:b:i:t=dim.	!
[32E-LLL [32G [32e- 32aa-	.
32E-'] 32G] 32e-] 32gg	.
[32E- [32G [32d- [32e- 32bb-	.
32E-'JJ] 32G] 32d-] 32e-] 32ee-	.
[32E-LL [32B- [32e- 32ff	.
32E-'] 32B-] 32e-] 32ee-	.
[32E- [32B- [32d- [32ee- 32ff	.
32E-'JJJ] 32B-] 32d-] 32ee-] 32gg	.
=43	=43
[32E-LLL [32c [32e- 32a- [32aa-	pp
32E-'] 32c] 32e-] 32g 32aa-]	.
[32E- [32c [32e- 32a-	.
32E-'JJ] 32c] 32e-_	.
[32AA-LL [32E- [32c 32e-_ 32a-	.
32AA-'] 32E-] 32c] 32e-]	.
[32Ct [32E- [32e- 32f	.
32C'tJJJ] 32E-] 32e-] 32g	.
[32AA-LLL [32E- [32c 32a-	.
32AA-'] 32E-] 32c] 32g	.
[32C [32E- 32dn 32e- 32a- [32ee-	.
32C'JJ] 32E-] 32e- 32ee-_	.
[32AA-LL [32E- [32c 32f 32ee-_	.
32AA-'] 32E-] 32c] 32g 32ee-]	.
[32Ct [32E- 32a- [32ee-	.
32C'tJJJ] 32E-] 32b- 32ee-]	.
[32AA-LLL [32E- [32c [32e- 32ddn 32ee- 32ccc	.
32AA-'] 32E-] 32c] 32e-] 32gg	.
[32C [32E- [32cc 32aa-	.
32C'JJ] 32E-] 32cc_ 32gg	.
[32AA-LL [32E- [32c 32cc_ 32aa-	.
32AA-'] 32E-] 32c] 32cc] 32bbn	.
[32Ct [32E- [32cc 32ccc	.
32C'tJJJ] 32E-] 32cc] 32bbn	.
[32AA-LLL [32E- [32c 32ccc	.
32AA-'] 32E-] 32c] 32ddd-X	.
[32C [32E- [32a- 32bn 32cc 32eee-	.
32C'JJ] 32E-] 32a-_ 32dddn	.
[32C-XLL [32A- [32e- 32a-_ 32eee-	.
32C-'] 32A-] 32e-] 32a-] 32eeen	.
[32E-XT 32g [32a- 32fff	.
32E-'JJJ] 32a-] 32eee-X	.
=44	=44
[32BB-LLL [32G [32e- 32ee- [32ddd-	.
32BB-'] 32G] 32e-] 32dd- 32ddd-]	.
[32E- [32G [32e- 32cc	.
32E-'JJ] 32G] 32e-_ 32dd-	.
[32BB-LL [32G 32e-_ 32ee-	.
32BB-'] 32G] 32e-] 32dd-	.
[32E-T [32G [32e- 32ff	.
32E-'TJJJ] 32G] 32e-] 32dd-	.
[32D-LLL [32G [32e- 32cc	.
32D-'] 32G] 32e-] 32b-	.
[32E- [32G [32d- 32dn 32e- 32dd-	.
32E-'JJ] 32G] 32d-_ 32b-	.
[32BB-LL [32G 32d-_ [32e- 32a-	.
32BB-'] 32G] 32d-] 32e-] 32g	.
[32E-T [32G 32b- [32dd-	.
32E-'TJJJ] 32G] 32a- 32dd-]	.
[32BB-LLL [32G [32e- [32g 32cc 32dd-	.
32BB-'] 32G] 32e-] 32g] 32ff	.
[32E- [32G [32g 32een	.
32E-'JJ] 32G] 32g_ 32ee-X	.
[32CnLL [32A- [32e-X 32g_ 32ddn	.
32C'] 32A-] 32e-] 32g] 32ee-	.
[32E-T [32A- [32a- 32ddd-X	.
32E-'TJJJ] 32A-] 32a-] 32ccc	.
[32D-XLLL [32B- [32e- 32bb-	.
32D-'] 32B-] 32e-] 32ccc	.
[32E- [32B- 32g 32a- [32b- 32ddd-	.
32E-'JJ] 32B-] 32b-_ 32dddn	.
[32GGLL [32B- [32e- 32b-_ 32eee-X	.
32GG'] 32B-] 32e-] 32b-] 32bb-	.
[32E-T [32G 32a- [32b- 32eee-	.
32E-'JJJ] 32G] 32b-] 32ddd-X	.
=45	=45
!LO:TX:a:i:t=cresc.	!
[32AA-LLL [32C [32c 32bn [32ccc	.
32AA-] 32C] 32c] 32cc 32ccc]	.
[32C [32A- [32c 32dd-	.
32CJJ] 32A-] 32c_ 32cc	.
[32EEnLL [32C [32G 32c_ 32cc	.
32EE] 32C] 32G] 32c] 32b-X	.
[32Ct [32c 32a-	.
32CtJJJ] 32c] 32g	.
[32FFLLL [32C [32c 32a-	.
32FF] 32C] 32c] 32g	.
[32C [32A- 32Bn 32c 32f [32ff	p
32CJJ] 32A-] 32en 32ff_	.
[32AAnLL [32C [32c 32f 32ff_	.
32AA] 32C] 32c] 32ff]	.
[32Ct [32F [32An 32g [32ff	.
32CtJJJ] 32F] 32A] 32f 32ff]	.
[32BB-XLLL [32G [32e-X 32een 32ff	.
32BB-] 32G] 32e-] 32ee-X	.
[32E-X [32G [32B-X 32ddn	.
32E-JJ] 32G] 32B-_ 32ee-	.
[32BB-LL [32G 32B-_ [32e- 32ff#X	.
32BB-] 32G] 32B-] 32e-] 32gg	.
[32E-T [32G [32b-X 32aan	.
32E-TJJJ] 32G] 32b-] 32bb-X	.
[32BB-LLL [32G [32e- 32ccc	.
32BB-] 32G] 32e-] 32bb-	.
[32E- [32G [32e- 32an 32b- 32dddn	.
32E-'JJ] 32G] 32e-] 32eee-X	.
[32BB-LL [32A-X [32dn [32fn 32fffn	.
32BB-'] 32A-] 32d] 32f] 32dddn	.
[32FT [32A- [32ddn 32fff	.
32FTJJJ] 32A-] 32dd] 32ggg	.
=46	=46
[32C-XLLL [32A- [32f [32aaa-	.
32C-] 32A-] 32f] 32ddn 32aaa-_	.
[32Dn [32A- 32ff 32aaa-_	.
32DJJ] 32A-] 32gg 32aaa-]	.
[32BB-LL [32A- [32f [32aa-	.
32BB-] 32A-] 32f] 32aa-_	.
[32Dn [32A- 32ff 32aa-_	.
32D'JJJ] 32A-] 32ee- 32aa-]	.
[32C-XLLL [32A- [32f [32ddn	.
32C-] 32A-] 32dn 32f] 32dd_	.
[32Dn [32A- 32f 32dd_	.
32D'JJ] 32A-] 32g 32dd]	.
[32BB-LL [32dn [32f [32a-	.
32BB-] 32d] 32f] 32a-_ 32cccn	.
[32F [32A- [32B- 32a-_ 32bb-	.
32F'JJJ] 32A-] 32B-] 32a-] 32ddn	.
[32E-LLL [32G [32e- 32ff	.
32E-] 32G] 32e-] 32ee-	.
[32G [32B- [32e- 32ddn	.
32GJJ] 32B-] 32e-_ 32dd-X	.
[32E-LL [32c 32e-_ 32cc	.
32E-] 32c] 32e-] 32b-	.
[32E-T [32A- [32c 32a-	.
32E-TJJJ] 32A-] 32c] 32g	.
[32E-LLL [32d-X 32f	.
32E-] 32d-] 32e-	.
[32G [32B- 32dn [32ee-	.
32GJJ] 32B-] 32d-X 32ee-_	.
[32E-LL [32A- 32c 32ee-_	.
32E-] 32A-] 32Bn 32ee-]	.
[32E-T 32B-X [32cn 32ddn [32ee-	.
32E-JJJ] 32A- 32c] 32ee-]	.
=47	=47
16E-LL 16G 16B- 16e- 16ee-	.
!LO:TX:a:i:t=poco cresc.	!
16GJ 16d- [16e- [16g	.
16E-L 16B- 16e-] 16g]	.
[32GL [32d- 32e- 32g	.
32GJJJ] 32d-] 32f 32a-	.
16E-'LL 16d- 16g 16b-	.
16E-J 16d- [16g [16b-	.
16E-L 16d- 16g] 16b-]	.
[32E-L [32d- 32g 32b-	.
32E-JJJ] 32d-] 32a- 32cc	.
[16E-'LL [16d- 16b- 16dd-	.
16E-'J] 16d-] 16e- [16gg	.
16e-'L 16ee- 16gg]	.
32d-L 32ee- 32gg	.
32B-JJJ 32ff 32aa-	.
16E-'LL 16gg 16bb-	.
[16ggJ [16bb-	.
16dd-L 16gg] 16bb-]	.
32ccL 32aa- 32ccc	.
32b-JJJ 32bb- 32ddd-	.
=48	=48
16a-'LL [16ccc [16eee-	.
[16C'J [16A- 16ccc] 16eee-]	.
16CL] 16A-] 16aa-	.
32CL 32A- 32ee-	.
32E-JJJ 32B- 32dd-	.
16A-'LL 16c [16cc	.
[16c'J [16e- 16cc]	.
16cL] 16e-] [16aa-	.
32cL 32e- 32ee- 32aa-_	.
32d-JJJ 32f 32dd- 32aa-_	.
[16e-'LL [16g-X 16cc 16aa-]	.
16e-'J] 16g-] [16ee- [16ccc	.
16a-L 16ee-] 16ccc]	.
[32A-L 32f 32ff 32ddd-	.
32A-JJJ_ 32d- 32gg-X 32eee-	.
!LO:TX:b:i:t=piu cresc.	!
32A-LLL] [32c [32gg-X [32eee-	.
32E-' 32c] 32gg-] 32eee-]	.
32C 32A- [32ee- [32gg-X	.
32AA-JJ 32C 32ee-_ 32gg-_	.
[32AA-LL [32e- 32ee-] 32gg-]	.
32AA-] 32e-] 32ff 32aa-	.
32GG-X 32c 32gg-X 32bb-	.
32EE-JJJ 32A- 32gg-X 32ccc	.
=49	=49
16DD-KL 16a- 16ff-X [16ddd-	f
8DD- 8D- 8d- 8ddd-_	.
32DD-LL 32D- 32d- 32ddd-_	.
32EE-JJJ 32E- 32e- 32ddd-_	.
16FF-X'KL 16F-X 16f-X 16ddd-_	.
8D- 8d- 8dd- 8ddd-_	.
32D-LL 32d- 32dd- 32ddd-_	.
32E-JJJ 32e- 32ee- 32ddd-_	.
16F-X'LL 16f-X [16ff-X 16ddd-]	.
[16dd-'J 16ff-]	p
16f-XL 16a- 16dd-]	.
32d-L 32dd-	.
32A-JJJ 32ee-	.
16dn'LL 16a- 16b- 16ff-X	.
[16ffnJ	.
16dnL 16a- 16b- 16ff]	.
32fnL 32ggn	.
32dnJJJ 32aa-	.
=50	=50
16e-'LL 16a- 16cc 16aa-	.
[16ee-J	.
16e-L 16cc 16ee-]	.
32a-L 32ff	.
32anJJJ 32ee-	.
16e-'LL 16g 16b- 16ee-	.
[16ddnJ	.
16e-L 16b- 16dd] 16bb-	.
32dd-XL 32ff	.
32b-JJJ 32ggn	.
16e-'LL 16a-X 16aa-X	.
32cL [32ee-	.
32A-XJJ 32ee-_	.
[16E-L 16a- 16ee-] 16ccc	.
32E-L_ 32e- 32ff 32aa-	.
32E-'JJJ] 32c 32ee- 32aan	.
[16B-'LL 16e- 16ee-	.
32B-L_ [32ddn	.
32G'JJ 32B-] 32dd_	.
16FnL 16B- 16dd] 16bb-	.
32E-L 32B- 32dd-X 32ff	.
32E-JJJ 32b- 32gg	.
=51	=51
16G-X'LL [16c [16e- [16cc 16aa-	.
32E-L 32c_ 32e-_ [32b-- 32cc_	.
32C'JJ 32c] 32e-] 32b--_ 32cc]	.
[16GG-XL 16e- 16b--]	.
32GG-L_ 32c 32a-	.
32GG-'JJJ] 32G-X 32ee-	.
16FLL [16dd-	.
32D-L [32B-X 32dd-_	.
32AA-'JJ 32B-_ 32dd-]	.
[16FFL 16B-] 16f	.
32FFL_ 32A- 32d-	.
32FF'JJJ] 32A- 32d-	.
16E-LL [16c	.
32CL 32c_ [32ff	.
32AA-'JJ 32c] 32ff_	.
[16EE-L 16e- 16ff]	.
32EE-L_ 32c 32ee-	.
32EE-'JJJ] 32A- 32ccc	.
16E-LL [16Gn [16bb-X	.
32D-L 32G_ [32g 32bb-_	.
32BB-X'JJ 32G] 32g_ 32bb-]	.
[16EE-L 16B- 16g]	.
32EE-L_ 32G 32f-X	.
32EE-'JJJ] 32D- 32e-	.
=52	=52
[16CLL 16E- [16a-	.
32CL_ 32a-_ [32ff	.
32AA-'JJ 32C] 32a-] 32ff_	.
[16EE-L 16c 16ff]	.
32EE-L_ 32A- 32ee-	.
32EE-'JJJ] 32E- 32aa-	.
[16D-LL 16E- [16bb-	.
32D-L_ [32f-X 32bb-_	.
32BB-'JJ 32D-] 32f-_ 32bb-]	.
[16EE-L 16G 16B- 16f-]	.
32EE-L_ 32G 32B- 32e-	.
32EE-'JJJ] 32D- 32G 32b-	.
[32EE-LLL [32C [32A- [32c 32a-	.
32EE-'] 32C] 32A-_ 32c]	.
[32C 32A-_ 32B- [32c	.
32C'JJ] 32A-] 32c]	.
[32CLL [32E- [32A- 32dn	.
32C'] 32E-] 32A-] 32e-	.
[32C 32A- [32c	.
32C'JJJ] 32c] 32en	.
[32D-XLLL [32G [32B- 32e	.
32D-'] 32G] 32B-] 32fn	.
[32E-X [32B-	.
32E-'JJ] 32B-] 32g	.
[32CLL [32c [32e-X 32g	.
!LO:TX:a:i:t=cresc.	!
32C'] 32c] 32e-] 32a- 32eee-X	.
[32E- [32A- 32e- 32ddd-X	.
32E-'JJJ] 32A-] 32a- 32ccc	.
=53	=53
!LO:TX:a:t=p  dol.	!
[32GGLLL [32E- [32d- [32b- 32bb-	.
32GG'] 32E-] 32d-] 32b-] 32ccc	.
[32E- [32G [32e- 32ddd-	.
32E-'JJ] 32G] 32e-_ 32ccc	.
[32BB-LL [32E- [32d- 32e-_ 32ddd-	.
32BB-'] 32E-] 32d-] 32e-] 32eee-	.
[32Gt [32B- [32e- 32fff	.
32G'tJJJ] 32B-] 32e-] 32eee-	.
[32BB-LLL [32E- [32d- 32ddd-	.
32BB-'] 32E-] 32d-] 32eee-	.
[32G [32B- 32dn 32e- [32ee- 32ddd-	.
32G'JJ] 32B-] 32ee-_ 32ccc	.
[32D-XLL [32E- [32B- 32ee-_ 32bb-	.
32D-'] 32E-] 32B-] 32ee-] 32ccc	.
[32Gt [32B- [32ee- 32bb-	.
32G'tJJJ] 32B-] 32ee-] 32aa-	.
[32D-LLL [32E- [32B- 32b- 32ddn 32ee- [32gg	.
32D-'] 32E-] 32B-] 32e- 32gg]	.
[32E- [32G [32B- 32f	.
32E-'JJ] 32G_ 32B-] 32e-	.
[32D-LL [32E- 32G_ [32B- 32f	.
32D-'] 32E-] 32G] 32B-] 32e-	.
[32E-T [32B- [32e- 32f	.
32E-'TJJJ] 32B-] 32e-] 32g	.
[32CLLL [32E- [32c 32g	.
32C'] 32E-] 32c] 32a-	.
[32C [32A- 32dn 32e- [32ee-	.
32C'JJ] 32A-] 32a- 32ee-_	.
[32BB-LL [32E- [32d-X 32a- 32ee-_	.
32BB-'] 32E-] 32d-] 32b- 32ee-]	.
[32D-XT [32G 32e- 32ddn [32ee-	.
32D-'JJJ] 32G] 32b- 32ee-]	.
=54	=54
[32AA-LLL [32E- [32A- 32b- 32ccc	.
32AA-] 32E-] 32A-] 32e- 32ddd-	.
[32C [32A- [32cc 32eee-	.
32CJJ] 32A-] 32cc_ 32ddd-	.
[32E-LL [32A- 32cc_ 32ccc	.
32E-] 32A-] 32cc] 32ddd-	.
[32Ct [32c [32e- 32ccc	.
32CtJJJ] 32c] 32e-] 32bb-	.
[32AA-LLL [32E- [32A- 32bb-	.
32AA-] 32E-] 32A-] 32ccc	.
[32E- [32A- 32dn 32e- [32cc 32bb-	.
32E-JJ] 32A-] 32cc_ 32aa-	.
[32E-LL [32c 32cc_ 32aa-	.
32E-] 32c] 32cc] 32gg	.
[32A-T [32c [32ee- 32aa-	.
32A-TJJJ] 32c] 32ee-] 32bb-	.
[32GG-XLLL [32E- [32A- 32ddn 32ee- [32ccc	.
32GG-] 32E-] 32A-] 32ff 32ccc]	.
[32C [32A- 32gg-X	.
32CJJ] 32A-_ 32ff	.
[32AA-LL [32E- 32A-_ [32c 32ee-	.
32AA-] 32E-] 32A-] 32c] 32ff	.
[32Ct [32A- 32ee-	.
32CtJJJ] 32A-] 32dd-X	.
[32GG-XLLL [32E- [32c 32dd-	.
32GG-] 32E-] 32c] 32cc	.
[32C 32Gn [32A- 32dd- [32ee-	.
32CJJ] 32A-] 32ee-_	.
[32E-LL [32G-X [32c 32b- 32ee-_	.
32E-] 32G-] 32c] 32a- 32ee-]	.
[32Ct [32e- 32b- 32ggn [32aa-	.
32CJJJ] 32e-] 32cc 32aa-]	.
=55	=55
[32FF-XLLL [32A- [32dd-	.
!LO:TX:b:i:t=cresc.	!
32FF-] 32A-] 32dd-] 32aa-	.
[32F-X [32A- [32d- 32ddd-	.
32F-JJ] 32A-] 32d-_ 32ccc	.
[32F-X'LL [32A- 32d-_ 32ddd-	.
32F-] 32A-] 32d-] 32aa-	.
[32F-Xt [32d- [32f-X 32g-X 32ddd-	.
32F-JJJ] 32d-] 32f-] 32ccc	.
[32FF-XLLL [32A- [32ddd-	.
32FF-'] 32A-] 32e- 32f-X 32a- 32ddd-]	.
[32F-X [32A- 32dd- [32aa-	.
32F-JJ] 32A-] 32cc 32aa-_	.
[32F-X'LL [32A- 32dd- 32aa-_	.
32F-] 32A-] 32a- 32aa-]	.
[32F-Xt [32d- 32dd- [32aa-	.
32F-tJJJ] 32d-] 32ee- 32aa-]	.
[32DD-LLL [32A- 32ff-X	.
32DD-] 32A-] 32gn 32ff- 32ggn 32aa-	.
[32D- [32A- [32a- 32fff-X	.
32D-JJ] 32A-] 32a-_ 32ff-X	.
[32D-'LL [32A- 32a-_ 32fff-X	.
32D-] 32A-] 32a-] 32ffn	.
[32FnT [32A- [32a- 32fffn	.
32FTJJJ] 32A-] 32a-] 32ff	.
[32D-LLL [32B- [32en [32gg	.
32D-'] 32B-] 32e] 32g 32gg]	.
[32D- [32B- [32en 32gg	.
32D-'JJ] 32B-] 32e] 32g	.
[32Dn'LL [32B- [32fn 32aa-	.
32D] 32B-] 32f] 32b-	.
[32Dnt [32A- 32en [32f 32bb-	.
32DJJJ] 32A-] 32f] 32b-	.
=56	=56
[32E-LLL [32c [32e- [32aa-	.
32E-'] 32c] 32e-] 32aa-]	p
[32E- [32c [32a- 32aaa-	.
32E-'JJ] 32c] 32a-_ 32ggg	.
[32E-LL [32c [32e- 32a-_ 32aaa-	.
32E-'] 32c] 32e-] 32a-] 32eee-	.
[32E-T [32c [32a- 32fff	.
32E-'TJJJ] 32c] 32a-] 32eee-	.
[32E-LLL [32B- [32g 32ddd-	.
32E-'] 32B-] 32g] 32bb-	.
[32G [32d- [32e- [32b- 32ccc	.
32G'JJ] 32d-] 32e-] 32b-_ 32bb-	.
[32E-LL [32B- [32e- 32b-_ 32gg	.
32E-'] 32B-] 32e-] 32b-] 32ee-	.
[32Gt [32d- [32e- [32b- 32ff	.
32G'tJJJ] 32d-] 32e-] 32b-] 32ee-	.
[32E-LLL [32c [32e- [32aa-	.
32E-'] 32c] 32e-] 32aa-]	.
[32C [32c [32a- 32ee-	.
32C'JJ] 32c] 32a-_ 32ddn	.
[32E-LL [32c [32e- 32a-_ 32ee-	.
32E-'] 32c] 32e-] 32a-] 32cc	.
[32Ant [32e- 32bn	.
32AtJJJ] 32e-] 32cc	.
[32E-LLL [32B-X [32e- 32dd-X	.
32E-'] 32B-] 32e-] 32cc	.
[32E- [32B- 32dn [32e- 32dd-	.
32E-'JJ] 32B-] 32e-_ 32ee-	.
[32E-LL [32G 32e-_ 32ff	.
32E-'] 32G] 32e-] 32ee-	.
[32E-T [32B- [32d-X 32dn [32e- 32ff	.
32E-'JJJ] 32B-] 32d-] 32e-] 32gg	.
=57	=57
[32E-LLL [32c [32e- [32aa-	.
!LO:TX:b:i:t=dim.	!
32E-] 32c] 32e-] 32aa-]	.
[32C [32A- [32c [32ee- 32eee-	.
32CJJ] 32A-] 32c] 32ee-_ 32dddn	.
[32G-X'LL [32c [32a- 32ee-_ 32eee-	.
32G-] 32c] 32a-] 32ee-]	.
[32Ct [32c [32e- [32a- 32gg-X	.
32CtJJJ] 32c] 32e-] 32a-] 32ee-	.
[32FLLL [32d-X [32a- [32dd-X	.
32F'] 32d-] 32a-] 32dd-]	.
[32F [32d- 32dd- [32aa-	.
32FJJ] 32d-] 32cc 32aa-_	.
[32F-X'LL [32d- [32a- 32dd- 32aa-_	.
32F-] 32d-] 32a-] 32aa-]	.
[32A-T [32d- [32a- 32ff-X [32aa-	.
32A-TJJJ] 32d-] 32a-] 32dd- 32aa-]	.
[32E-LLL [32A- [32a- [32cc	.
!LO:TX:b:i:t=cresc.	!
32E-] 32A-] 32a-] 32cc] 32aa-	.
[32E- [32d- [32a- 32bb-	.
32E-JJ] 32d-] 32a-_ 32aa-	.
[32E-'LL [32c 32a-_ 32ccc	.
32E-] 32c] 32a-] 32aa-	.
[32E-t [32c [32ee- 32bb-	.
32E-tJJJ] 32c] 32ee-] 32aa-	.
[32D-XLLL [32B- [32gn [32ee-	.
32D-'] 32B-] 32e- 32g] 32ddn 32ee-]	.
[32E- [32c 32fn [32ggn	.
32E-JJ] 32c] 32e- 32gg_	.
[32D-X'LL [32B- [32e- 32g 32gg_	.
32D-] 32B-] 32e-] 32gg]	.
[32D-T [32B- 32f 32ffn [32gg	.
32D-JJJ] 32B-] 32e- 32gg]	.
=58	=58
[32CLLL [32B- [32e- [32a-	.
!LO:TX:b:i:t=dim.	!
32C'] 32B-] 32e-] 32a-] 32ee-	.
[32C [32B- [32e- 32aa-	.
32CJJ] 32B-] 32e-] 32gg	.
[32CLL [32A- [32e- [32aa-	.
32C'] 32A-] 32e-] 32aa-]	.
[32Ct [32A- 32cc [32ee-	.
32CtJJJ] 32A-] 32b- 32ee-]	.
[32D-LLL [32B- [32e- [32b-	.
32D-'] 32B-] 32e-] 32b-] 32ddn 32ee-	.
[32D-X [32A- [32e- 32bb-	.
32D-JJ] 32A-] 32e-] 32aan	.
[32D-LL [32G [32e- [32bb-	.
32D-'] 32G] 32e-] 32bb-]	.
[32E-T [32G 32cc [32ee-	.
32E-TJJJ] 32G] 32b- 32ee-]	.
[32CLLL [32A-X [32e- [32a-X	.
32C'] 32A-] 32e-] 32a-] 32ddn 32ee-	.
[32C [32A- [32e- 32aa-X	.
32CJJ] 32A-] 32e-] 32gg	.
16CC'L 16A- 16a- 16aa-	.
16CJJ 16c	.
8CC#XL 8C#X 8c#X	p
[8EEnJ [8En [8en	.
=59||	=59||
*k[f#c#g#d#]	*
*E:	*
*M2/2	*
*met(c|)	*
!LO:TX:a:B:t=Adagio molto espressivo	!
*MM60	*
!LO:TX:t=[quarter]=60	!
4EE_ 4E_ 4e_	.
4EE_ 4E_ [4G# 4e]	.
4EE_ 4E] 4G#] 4g#	.
4EE] 4Gn 4A#X 4cc#	.
=60	=60
[4DD# [4F# 4f# 4cc#	.
4DD#] 4F#] [4B [4f# [4b	.
[8AAL [8F# 8B_ 8f#_ 8b]	.
8AA_ 8F#_ 8B_ 8f#] 8b	.
8AA_ 8F#_ 8B_ [8b 8cc#	.
8AAJ] 8F#] 8B] 8b_ 8dd#	.
=61	=61
!LO:TX:b:i:t=cresc.	!
[8GG#L [8E [8B 8b] [8ee	.
8GG#] 8E] 8B] [8e 8ee_	.
[8.AA [8.E [8.c# 8.e_ 8.ee_	.
16AAJk] 16E] 16c#] 16e_ 16f# 16ee_	.
4BB' 4E 4B 4e_ 4f# 4ee_	.
4Cn' 4A#X 4e_ 4f# 4ee_	.
=62	=62
4BB 4B 4e_ 4f# 4ee_	p
[8AA#XL 8E 8e] [8cc# 8ee]	.
8AA#J] [8Gn [8e 8cc#_	.
[16BBLL 16G_ 16e_ 16cc#]	.
16BBJ] 16G] 16e] 16b	.
8BB 8F# 8d# [8bb	.
8d# 8f# 8b 8bb]	.
8d#J 8f# 8b 8aan	.
=63	=63
[8BL [8e [8g# [8b 8aa	.
8B] 8e_ 8g#_ 8b_ 8gg#	.
8e_ 8g#_ 8b_ 8gg#	.
16eL_ 16g#_ 16b_ 16eee	.
16eJJ_ 16g#] 16b] 16ccc#	.
8eL_ [8gn [8cc# 8bb	.
8e_ 8g] 8cc#] 8aa#X	.
8e_ [8gn [8cc# 8aa#	.
8eJ] 8g] 8cc#] 8aa#X	.
=64	=64
[8d#L [8f# [8cc# 8aa#X	.
8d#_ 8f#_ 8cc#] 8bb	.
8d#_ 8f#_ [8b 8bb	.
16d#L_ 16f#_ 16b_ 16aaan	.
16d#JJ] 16f#] 16b_ 16fff#	.
[8f#L [8a 8b] 8eee	.
8f#_ 8a] 8b 8ddd#	.
8f#_ [8a [8b 8cc# 8ccc#	.
8f#J] 8a] 8b] 8dd# 8bb	.
=65	=65
!LO:TX:b:i:t=cresc.	!
[8eL [8g# [8bn [8ee 8bb	.
8e] 8g#] 8b] 8ee]	.
[8EE [8BB [8G# [8B 8gg#	.
8EEJ] 8BB_ 8G#] 8B_ 8bb	.
[8DD#'L 8BB_ [8F# 8B] 8ccc#	.
8DD#'] 8BB_ 8F#] [8b 8ddd#	.
[8CC#' 8BB_ [8E 8b] 8eee	.
8CC#'J] 8BB_ 8E] [8a#X 8fff#	.
=66	=66
[4CCn 4BB_ [4E [4Gn 4a#X] [4gggn	f
8CCL_ 8BB_ 8E_ 8G_ 8ee 8ggg]	.
8CCJ_ 8BB_ 8E_ 8G_ 8A#X 8e	.
8CCL] 8BB] 8E] 8G] 8A#X 8e	p
!LO:TX:a:i:t=cresc.	!
[8DD# [8BB [8F# [8B	.
8DD#] 8BB] 8F#] 8B]	.
8DD#J 8BB 8F# 8B [8b	.
=67	=67
!LO:TX:a:i:t=cantabile	!
[4.DD# [4.F# 4.f# 4.b_	p
8DD#] 8F#] 8e 8b_	.
[4FF# [4A 4d# 4b_	.
8FF#L_ 8A_ 8e 8b_	.
8FF#J] 8A] 8f# 8b_	.
=68	=68
[4.EE#X [4.G# [4.dn 4.g# 4.b_	.
8EE#] 8G#] 8d_ 8f# 8b_	.
[4GG# [4B 4d_ 4e#X 4b_	.
8GG#L] 8B_ 8d_ 8f# 8b_	.
8EE#XJ 8B] 8d] 8g# 8b]	.
=69	=69
!LO:TX:b:i:t=cresc.	!
4FF# 4A 4d# 4a	.
4BB [4F# [4A [4a [4dd#	.
[4CCn [4Cn 4F#_ 4A_ 4a_ 4dd#]	.
8CCL_ 8C_ 8F#_ 8A_ 8a_ 8een	.
8CCJ_ 8C_ 8F#] 8A] 8a] 8ff#	.
=70	=70
4.CCn] 4.Cn] 4.Gn 4.cn 4.gn 4.ee	f
[8DD# [8F# [8f# [8b	.
8DD#L] 8F#] 8f#] 8b]	p
[16EEnL [16G#X 16B [16e	.
16EE] 16G#] 16e] 16b	.
[16e [16g#X 16b	.
16e] 16g#] 16bb	.
[16e [16g# [16b 16aa#X	.
16eJJ] 16g#] 16b] 16bb	.
=71	=71
!LO:TX:b:i:t=espressivo	!
4.f# 4.a 4.dd# [4.bb	.
8e 8g# 8ee 8bb]	.
[8d#L [8f# 8b [8fff#	.
8d#] 8f#] 8ff# 8fff#]	.
8e 8g# 8ee [8bb	.
8f#J 8a 8dd# 8bb]	.
=72	=72
[4g# [4b [4ee [4bb	.
8g#L] 8b] 8ee] 8bb_	.
8f#J 8a 8ff# 8bb]	.
[8e#XL [8g# 8b [8ggg#	.
8e#] 8g#] 8gg# 8ggg#]	.
8f# 8a 8ff# [8bb	.
8g#J 8b 8ee#X 8bb]	.
=73	=73
!LO:TX:b:i:t=cresc.	!
[8f#L [8a [8ddd#	.
8f#J] 8a] 8aa 8ddd#]	.
[4Cn [4cn [4f# [4dd# 4fff#	.
4C_ 4c_ 4f#_ 4dd#_ [4aaa	.
8CL_ 8c_ 8f#_ 8dd#_ 8een 8aaa_	.
8CJ] 8c] 8f#] 8dd#] 8ff# 8aaa]	.
=74	=74
[8CnL [8cn [8en [8een 8gggn	f
8C_ 8c_ 8e] 8ee_ 8fff#	.
8C] 8c] 8gn 8ee] 8eee	.
8D#J 8B 8f# [8b [8fff#	.
8D#L [8B 8f# 8b] 8fff#]	p
[16EL 16B_ 16g#X [16eee	.
16EJ] 16B] 16gn 16eee]	.
!LO:TX:b:i:t=dim.	!
8CCn 8Cn 8Gn 8cn 8gn 8ee	.
8DD#J 8D# 8f# 8b	.
=75	=75
[8EEL [8Dn [8E [8G# 8b	.
8EE_ 8D] 8E_ 8G#] 8g#	.
8EE_ 8C# 8E_ [8A 8b	.
8EEJ_ 8Cn 8E_ 8A] [8a	.
8EEL_ [8BB 8E_ [8B 8a]	.
8EE_ 8BB] 8E] 8B] 8e	.
8EE_ [8AA#X [8E [8c#X 8g#	.
8EEJ] 8AA#] 8E] 8c#] [8f#	.
=76	=76
[8EEL 8AAn [8E 8cn 8f#]	.
8EE_ 8GG# 8E_ [8B 8e	.
8EE_ [8AA 8E] 8B_ 8f#	.
8EEJ] 8AA] 8D# 8B]	.
[12eL	pp
12EE' 12E 12e_	.
12EE' 12E 12e_	.
12EE' 12E 12e_	.
12EE' 12E 12e_	.
12EE'J 12E 12e]	.
=77	=77
*M12/8	*
!LO:TX:a:B:t=Tempo 1	!
8EEL 8E 8e	.
8EE-X [8E-X [8e-X	.
8EE-XtJ 8E-_ 8e-_	.
8DDn'L 8EE-X 8AA-X 8E-_ 8cn 8e-_	.
8Cn' 8E-_ 8cn 8e-_	.
8E-'J_ 8cn 8e-_	.
8E-'L_ 8Gn 8cn 8e-_	.
8E-'_ 8A-X 8cn 8e-]	.
8E-'J_ 8cn 8e-X 8ee-X	.
8E-'L] 8cn 8e-X 8ee- [8cccn	.
8E-X' 8cn 8e-X 8gn 8ccc]	.
[16E-XL [16cn [16e-X [16a-X 16bb-X	.
16E-'JJ] 16c] 16e-] 16a-] 16aa-X	.
=78	=78
[8E-X'L [8B-X 8d-X 8e-X 8b-X [8aa-X	.
8EE-X' 8E-_ 8B-_ 8d-X 8e-X 8aa-]	.
[16EE-XtL 16E-_ 16B-_ [16d-X [16e-X 16ggn	.
16EE-'tJJ] 16E-_ 16B-_ 16d-] 16e-] 16ee-X	.
8DDn'L 8EE-X 8GGn 8E-_ 8B-_ 8d-X 8e-X [8eee-X	.
8BB-X' 8E-_ 8B-_ 8d-X 8e-X 8eee-_	.
8D-X'J 8E-_ 8B-_ 8d-X 8e-X 8eee-_	.
8E-'L_ 8B-_ 8d-X 8e-X 8eee-_	.
8E-'_ 8Gn 8B-_ 8d-X 8e-X 8eee-]	.
8E-'J_ 8B-_ 8d-X 8e-X 8ddd-X	.
8E-'L] 8B-] 8d-X 8e-X [8ddd-	.
8E-X' 8B-X 8d-X 8e-X 8fn 8ddd-]	.
[16E-XL [16B-X [16d-X [16e-X [16gn 16cccn	.
16E-'JJ] 16B-] 16d-] 16e-] 16g] 16bb-X	.
=79	=79
!LO:TX:a:i:t=cresc.	!
8E-X'L 8cn 8e-X 8g-X 8bb-X	.
8CCn' [8G-X 8A 8e-X 8aa	.
32DD-XLL 32G-_ [32A [32e-X [32eee-X	.
32CCn 32G-_ 32A_ 32e-_ 32eee-_	.
32DD-X 32G-_ 32A_ 32e-_ 32eee-_	.
32CCn'JJJ 32G-_ 32A] 32e-] 32eee-]	.
8EE-X'L 8G-_ 8cn 8e-X [8eee-X	.
8GG-X' 8G-_ 8cn 8e-X 8eee-]	.
[16AAL 16G-_ [16cn [16e-X 16ddd-X	.
16AA'JJ] 16G-] 16c] 16e-] 16cccn	.
[8FnL [8B-X 8fn 8ccc	.
8DD-X 8F_ 8B-_ 8fn 8bb-X	.
8DD-X'TJ 8F_ 8B-_ 8d-X 8fn [8fffn	.
8CCn'L 8DD-X 8FFn 8F] 8B-] 8d-X 8fn 8fff_	.
8BB-X' 8Fn 8B-X 8d-X 8fn 8fff]	.
[16D-XL [16Fn [16B-X [16d-X [16fn 16eee-X	.
16D-'JJ] 16F] 16B-] 16d-] 16f] 16ddd-X	.
=80	=80
[8E-XL [8A-X 8cn 8e-X 8a-X [8cccn	p
8EE-X 8E-_ 8A-_ 8cn 8a-X 8ccc_	.
8EE-XtJ 8E-] 8A-_ 8cn 8a-X 8ccc]	.
!LO:TX:a:i:t=cresc.	!
8DDn'L 8EE-X 8AA-X [8Fn 8A-_ 8a-X [8ccc-X	.
8C-X' 8F_ 8A-_ 8a-X 8ccc-_	.
8Dn'J 8F_ 8A-] 8c-X 8a-X 8ccc-]	.
8E-X'L 8F] [8Gn 8gn [8bb-X	p
[8E-X' 8G_ 8B-X 8e-X 8bb-]	.
16E-L_ 16G_ [16B-X [16e-X 16aa-X	.
16E-'JJ_ 16G_ 16B-] 16e-] 16ggn	.
16E-LL_ 16G_ [16B-X [16e-X 16ffn	.
16E-'] 16G] 16B-] 16e-] 16een	.
[16E-X [16A-X [16B-X [16e-X [16fn 16ee	.
16E-'J] 16A-] 16B-] 16e-] 16f] 16ee-X	.
8E-X'TJ 8B-X 8e-X 8gn 8dd-X	.
=81	=81
8E-X'L [8A-X 8cn 8e-X 8ccn	.
8E-X' 8A-_ 8cn 8e-X 8ee-X	.
8E-X'tJ 8A-_ 8cn 8e-X 8ee-	.
8E-X'L 8A-_ 8cn 8dn 8e-X 8a-X 8ee-X	.
8E-X' 8A-_ 8cn 8ccn 8ee-	.
[16E-XL 16A-] [16cn [16ee-X	.
16E-'JJ] 16B-X 16c] 16ee-]	.
8E-X'L [8cn 8ee-X 8aa-X	.
8E-X' 8c_ 8ee-X 8cccn	.
[16E-XL 16c_ [16ee-X [16eee-X	.
16E-'JJ] 16c] 16d-X 16ee-] 16eee-]	.
8E-X'L 8cn [8e-X 8ee-X 8gggn	.
8E-X' 8cn 8e-_ 8ee-X 8aaa-X	.
[16E-XL [16cn 16e-] [16ee-X [16aa-X	.
16E-'JJ] 16c] 16fn 16ee-] 16aa-]	.
=82	=82
8E-X'L 8d-X 8e-X [8fn 8ee-X 8ggn	.
8E-X' 8d-X 8e-X 8f_ 8ffn	.
[16E-XtL [16d-X [16e-X 16f] [16ee-X	.
16E-'tJJ] 16d-] 16e-] 16ee-]	.
8E-X'L 8B-X [8d-X 8dn 8e-X 8gn 8ee-X	.
8E-X' 8B-X 8d-_ 8e-X 8b-X 8ee-	.
[16E-XL [16B-X 16d-] [16e-X [16dd-X [16ee-X	.
16E-'JJ] 16B-] 16e-] 16dd-] 16ee-]	.
8E-X'L [8Gn 8B-X 8e-X 8ee-X	.
8E-X' 8G_ 8B-X 8e-X 8ee- 8ggn	.
[16E-XL 16G] [16d-X [16e-X [16ee-X [16bb-X	.
16E-'JJ] 16d-] 16e-] 16ee-] 16bb-]	.
8E-X'L [8d-X 8e-X 8b-X 8eee-X	.
8E-X' 8d-_ 8e-X 8b-X 8fffn	.
[16E-XL [16B-X 16d-] [16gn [16b-X [16gggn	.
16E-'JJ] 16B-] 16g] 16b-] 16ggg]	.
=83	=83
!LO:TX:a:i:t=cresc.	!
8E-XL [8A-X 8ccn 8aaa-X	.
8En 8A-_ 8ccn	.
[16FntL 16A-_ [16cccn	.
16FtJJ] 16A-] 16a-X 16ccc]	.
8FnL 8A-X [8gn	.
8Gn 8B-X 8g_ 8ccn 8bb 8cccn	.
[16A-XTL [16cn 16g] [16ffn	.
16A-TJJ] 16c] 16fn 16ff]	.
8AnL 8cn [8fn	.
8Gn 8B-X 8f_ 8gn 8b-X 8ee 8ffn	.
[16GnTL [16B-X 16f] [16gn [16ggn	.
16GTJJ] 16B-] 16e-X 16g] 16gg]	.
8B-XL [8fn 8a-X	.
8B-X 8f_ 8a- 8b-X 8ffn 8ggn	.
[16B-XTL [16dn 16f_ 16gg [16aa-X	.
16B-JJ] 16d] 16f] 16aa-]	.
=84	=84
8E-XL 8A-X 8B-X [8dn 8fn	.
8E-X 8A-X 8B-X 8d_ 8f 8b-X	p
[16E-XtL [16A-X [16B-X 16d] [16fn [16aa-X	.
16E-tJJ] 16A-] 16B-] 16f] 16aa-]	.
8E-XL 8A-X 8B-X 8fn	.
8E-X 8A-X 8B-X 8f [8a-X 8ffn 8ggn 8aa-X	.
[16E-XtL [16A-X [16B-X [16fn 16a-] [16bb-X	.
16E-'tJJ] 16A-] 16B-] 16dn 16f] 16bb-]	.
8E-XL 8Gn 8B-X 8e-X 8fn	.
!LO:TX:b:i:t=cresc.          -                     -                -               -	!
8E-X 8Gn 8e-X 8ee-X 8aan 8bb-X	.
[16FnTL [16A-X 16d-X 16dddn [16eee-X	.
16FJJ] 16A-] 16cn 16eee-]	.
8FnL 8A-X 8cn	.
8Gn 8B-X 8ee-X	.
8A-XTJ 8cn 8dddn 8eee-X	.
=85	=85
8E-XL 8Gn 8B-X 8d-X 8e-X [8b-X	.
8EE-X 8E-X 8d-X 8e-X 8b-_ 8ee-X	.
8EE-XtJ 8E-X 8d-X 8e-X 8b-_ 8ee-	.
8DDn'L 8EE-X 8GGn 8E-X 8d-X 8e-X 8b-_ 8ee-X	.
8BB-X' 8E-X 8d-X 8e-X 8b-_ 8ee-	.
[16D-XL [16E-X [16d-X [16e-X 16b-] [16ee-X	.
16D-'JJ] 16E-] 16d-] 16e-] 16a-X 16ee-]	.
8E-XL 8d-X 8e-X [8a-X 8ee-X	.
8E-X' 8Gn 8d-X 8e-X 8a-_ 8ee-	.
[16E-XL [16B-X [16d-X [16e-X 16a-] [16ee-X	.
16E-'JJ] 16B-] 16d-] 16e-] 16gn 16ee-]	.
8E-XL 8d-X 8e-X [8a-X 8ee-X	.
8E-X' 8d-X 8e-X 8fn 8a-_ 8ee-	.
[16E-XL [16d-X [16e-X [16gn 16a-] [16ee-X	.
16E-'JJ] 16d-] 16e-] 16g] 16b-X 16ee-]	.
=86	=86
!LO:TX:b:i:t=rinf.    -              -              -	!
8E-XL 8A 8cn 8e-X 8b 8ee-X	.
8FFn 8E-X 8cn 8e-X [8ccn 8ee-	.
8FFntJ 8E-X 8cn 8e-X 8cc_ 8ee-X	.
8EEnL 8FFn 8E-X 8cn 8e-X 8cc_ 8ee-	.
8AA' 8E-X 8cn 8e-X 8cc_ 8ee-X	.
[16CnL [16E-X [16cn [16e-X 16cc] [16ee-	.
16C'JJ] 16E-] 16c] 16e-] 16b 16ee-]	.
8E-X'L 8Fn 8cn 8e-X [8b-X 8ee-X	.
8E-X 8cn 8e-X 8b-_ 8ee-	.
[16E-XL [16cn [16e-X [16fn 16b-] [16ee-X	.
16E-'JJ] 16c] 16e-] 16f] 16a 16ee-]	.
8E-X'L 8cn 8e-X 8fn [8b-X 8ee-X	.
8E-X' 8cn 8e-X 8gn 8b-_ 8ee-	.
[16E-XL [16cn [16e-X [16a 16b-] [16ee-X	.
16E-'JJ] 16c] 16e-] 16a] 16ccn 16ee-]	.
=87	=87
!LO:TX:b:i:t=rinf.      -              -            -	!
8FnL 8B-X 8dn 8a-X [8ddn	.
8BB-X 8Fn 8A-X 8B-X 8dn 8dd_	.
8BB-XtJ 8Fn 8A-X 8B-X 8dn 8dd_	.
8AAnL 8BB-X 8Fn 8A-X 8B-X 8dn 8dd_	.
8Fn 8A-X 8B-X 8dn 8dd_	.
[16FnL [16A-X [16B-X [16dn 16dd]	.
16FJJ] 16A-] 16B-] 16d] 16ee-X	.
8FnL 8A-X 8B-X 8dn [8ffn	.
8Fn' 8A-X 8B-X 8dn 8e-X 8ff_	.
[16FnL [16A-X [16B-X [16dn [16fn 16ff]	.
16F'JJ] 16A-] 16B-] 16d] 16f] 16ggn	.
8Fn'L 8A-X 8B-X 8dn 8fn [8aa-X	.
8E-X' 8A-X 8B-X 8e-X 8gn 8aa-_	.
[16DnL [16A-X [16B-X [16fn [16a-X 16aa-]	.
16D'JJ] 16A-] 16B-] 16f] 16a-] 16bb-X	.
=88	=88
8E-XL 8A-X 8cn 8e-X 8a-X [8aa-X	p
8E-X 8A-X 8cn 8e-X 8aa-_	.
[16E-XL [16A-X [16cn [16e-X 16aa-]	.
16E-JJ] 16A-] 16c] 16e-] 16ee-X	.
8DnL 8E-X 8Gn 8B-X 8e-X [8dd-X	.
8EE-X 8E-X 8B-X 8d-X 8e-X 8dd-_	.
[16EE-XtL [16E-X [16Gn [16B-X [16e-X 16dd-]	.
16EE-tJJ] 16E-] 16G] 16B-] 16e-] 16b-X	.
8DDnL 8EE-X 8E-X 8A-X 8cn 8e-X 8a-X	.
!LO:TX:b:i:t=cresc.	!
8Gn 8B-X 8e-X	.
8A-XTJ 8cn 8fn 8ee-X	.
8AnL 8cn 8e-X 8f#X	.
8B-X 8d-X 8gn 8ddn 8ee-X	.
8E-XtJ 8cn 8a-X 8dddn 8eee-X	.
=89	=89
8E-X'L 8A 8cn 8f# 8ee-X	.
[8E-X' [8B-X [8d-X 8e-X [8gn	.
8E-tJ_ 8B-_ 8d-_ 8e-X 8g_	.
8E-L_ 8B-_ 8d-_ 8dn 8e-X 8g_	.
8E-'] 8B-_ 8d-_ 8g_ 8b-X	.
16B-L] 16d-] 16g] [16dd-X	.
16A-X'JJ 16cn 16fn 16dd-]	.
[8A-X'L [8cn [8fn 8ee-X	.
8A-'_ 8c_ 8f_ 8ggn	.
16A-L] 16c] 16f] [16bb-X	.
16Gn'JJ 16B-X 16e-X 16bb-]	.
[8A-X'L [8cn [8fn 8dddn	.
8A-'_ 8c_ 8f_ 8eee-X	.
16A-L] 16c] 16f] [16eee-	.
16B-X'JJ 16d-X 16gn 16eee-]	.
=90	=90
[8B-X'L [8d-X [8gn 8ee-X	rfz
8B-'] 8d-_ 8e-X 8g]	.
[8cnJ [8e-X [8a	.
8c'L_ 8dn 8e-_ 8g-X] 8a_	.
8c_ 8e-_ 8a_	.
16cL] 16e-] 16a] [16ccn	.
16B-X'JJ 16d-X] 16g-X 16cc]	.
[8B-X'L [8d-X [8g-X 8ee-X	.
8B-'_ 8d-_ 8g-_ 8gg-X	.
16B-L] 16d-] 16g-] [16cccn	.
16A'JJ 16cn 16fn 16ccc]	.
[8B-X'L [8d-X [8gn 8eeen	.
8B-'_ 8d-_ 8g_ 8fffn	.
16B-TL] 16d-] 16g] 16een [16ffn	.
16cnJJ 16e-X 16a 16ff]	.
=91	=91
[8dn'L [8fn [8a-X [8b-X 8ffn	rfz
8B-X' 8d_ 8f_ 8a-_ 8b-_	.
8B-XtJ 8d_ 8f_ 8a-_ 8b-_	.
8AnL 8B-X 8d_ 8f_ 8a-_ 8b-_	.
8d_ 8f_ 8a-_ 8b-_	.
16dL] 16f] 16a-_ 16b-]	.
16e-X'JJ 16gn 16a-] 16ccn	.
[8fn'L [8a-X 8b-X [8ddn	.
8f_ 8a-_ 8dd_	.
16fL] 16a-] 16dd] [16ffn	.
16gn'JJ 16b-X 16ee-X 16ff]	.
[8a-X'L [8ddn [8ffn 8bb-X	.
8a-'_ 8dd_ 8ff_ 8fffn	.
16a-TL] 16dd] 16ff] 16dddn [16eee-X	.
16b-XJJ 16dd-X 16ggn 16eee-]	.
=92	=92
16b-XLL 16dd-X 16ggn [16eee-X	.
[16a-X'J [16ccn [16aa-X 16eee-]	.
8e-X' 8a-_ 8cc_ 8aa-]	.
16a-TL] 16cc] [16ee-X	.
16e-XtJJ 16a-X 16ccn 16ee-]	.
[8d-XL [8gn [8b-X 8ddn 8ee-X	.
8d-'_ 8e-X 8g_ 8b-_	.
16d-TL] 16g] 16b-] [16ggn	.
16B-XJJ 16e-X 16gn 16gg]	.
!LO:TX:b:i:t=cresc.	!
[8A-X'L 8e-X 8ccn 8ffn 8ggn 8aa-X	.
8A-'_ [8cn 8e-X [8a-X	.
16A-TL] 16c] 16a-] [16ee-X	.
16AntJJ 16cn 16e-X 16ee-]	.
[8B-XL [8d-X [8e-X 8ddn 8ee-X	.
8B-_ 8d-_ 8e-]	.
16B-TL] 16d-] 16dd-X 16ffn [16ggn	.
16e-XJJ 16gn 16b-X 16gg]	.
=93	=93
!LO:TX:a:i:t=dim.	!
[8e-X'L [8g-X [8ccn 8aa-X	.
8e-'_ 8g-_ 8cc_ 8aa-	.
16e-tL] 16g-] 16cc] [16gg-X	.
16A-XtJJ 16cn 16b-X 16gg-]	.
[8d-X'L 8fn [8a-X 8ffn	.
8d-'_ [8f-X 8a-_ 8aa-X	.
16d-TL] 16f-] 16a-] [16ff-X	.
16A-XtJJ 16d-X 16f-X 16ff-]	.
[8cn'L [8e-X [8a-X 8ee-X	.
8c'_ 8e-_ 8a-_ 8aa-X	.
16cL] 16e-] 16a-] [16ee-X	.
16A-XJJ 16cn 16e-X 16ee-]	.
[8E-X'L [8Gn [8dd-X 8ee-X	.
8E-'_ 8G_ 8dd-_ 8ddd-X	.
16E-tL] 16G] 16dd-] 16ddn [16ee-X	.
16GnJJ 16d-X 16b-X 16ee-]	.
=94	=94
[8A-X'L [8cn [8a-X 8ee-X	p
8A-'] 8c] 8a-] 8cccn	.
8ee-XtJ	.
[8B-XL [8d-X [8gn 8ddn [8ee-	.
8B-'] 8d-] 8g] 8ee-] 8ddd-X	.
8ggnTJ	.
4A-X 4cn 4a-X 4ffn 4gg 4aa-X	.
8r	.
4bb-X	.
8r	.
=95	=95
[8fn'L 8a-X [8dd-X [8aa-X	.
8f] 8dd-] 8aa-]	.
8a-XtJ	.
[8g-XL 8gn 8a- [8ee-X	.
8g-'] 8ee-] 8aa-X	.
8ccntJ	.
4fn 4a-X 4b-X 4cc 4dd-X	.
8Gn	.
!LO:TX:b:i:t=sotto voce	!
4A-X	.
8cn	.
=96	=96
[4d-X	.
8E 8d-_	.
4Fn 4d-_	.
8A 8d-_	.
[4B-X 4d-]	.
8B-_ 8fn	.
4B-_ 4g-X	.
8B-_ 8b-X	.
=97	=97
4B-X] [4a-X	.
8Bn 8a-_	.
4cn 4a-_	.
8e-X 8a-_	.
[8g-XL 8a-]	.
8g-_ 8b	.
8g-J_ 8ccn	.
4g-_ 4b-X	.
8g-_ 8a-X	.
=98	=98
4g-X] [4dd-X	.
8e 8dd-_	.
4FFn 4d-X [4fn 4dd-]	.
8f_ 8a	.
4f] [4b-X	.
8dn 8b-_	.
4GG-X 4B-X [4e-X 4b-]	.
8e-_ 8g-X	.
=99	=99
4e-X] [4fn	.
8d-X 8f_	.
4AA-X 4A-X [4cn 4f]	.
8c_ 8e-X	.
4c] [4d-X	.
8B-X 8d-] 8f##X	.
4A-X 4cn 4g#	.
8CCn 8Cn 8b#X	.
=100||	=100||
*k[f#c#g#d#]	*
*c#:	*
[4CC# [4C# [4cc#	.
8CC#_ 8C#_ 8cc#_ 8ff##X	.
4CC#_ 4C#_ 4cc#_ 4gg#	.
8CC#_ 8C#_ 8cc#_ 8bb#X	.
!LO:TX:a:i:t=cresc.	!
4CC#] 4C#] 4cc#] [4ccc#	.
8C# 8e 8ee 8ccc#_	.
4BBn 4g# 4gg# 4ccc#_	.
8D# 8B 8b 8ccc#_	.
=101	=101
4F# 4A 4a 4ccc#_	.
8AA 8c# 8cc# 8ccc#_	.
4GG# 4e 4ee 4ccc#_	.
8BB 8G# 8g# 8ccc#_	.
4D# 4F# 4f# 4ccc#_	.
8FF# 8A 8a 8ccc#_	.
4EE 4c# 4cc# 4ccc#_	.
8C# 8E 8e 8ccc#]	.
=102	=102
4DD# 4c# 4cc# [4ff#	p
8C# 8D# 8d# 8ff#]	.
4DD# 4B#X 4b#X [4gg#	.
8BB#X 8D# 8d# 8gg#]	.
[4CC# 4C# 4e 4cc# 4ee	.
!LO:TX:b:i:t=cresc.	!
8CC#_ 8e 8cc#	.
4CC#_ 4g# 4bn	.
8CC#_ 8Bn 8dd#	.
=103	=103
4CC#_ 4A 4ff#	.
8CC#_ 8c# 8a	.
4CC#_ 4e 4g#	.
8CC#_ 8G# 8b	.
4CC#_ 4F# 4dd#	.
8CC#_ 8A 8f#	.
4CC#_ 4c# 4e	.
8CC#] 8E 8cc#	.
=104	=104
[4FF# 4c# 4d#	p
8FF#] 8D# 8cc#	.
[4GG# 4B#X 4d#	.
8GG#_ 8D# 8b#X	.
4GG#] [4E [4c# 4cc#	.
8FF##X 8E_ 8c#_	.
4GG# 4E] 4c#]	.
8BB#X 8F#X 8d#	.
=105	=105
[4C# 4E 4e [4cc#	.
8C#_ [8e 8f##X 8cc#_	.
4C#_ 4e] 4g# 4cc#]	.
8C#_ 8f#X 8b#X 8dd#	.
4C#_ [4e [4cc# 4ee	.
8C#_ 8e_ 8cc#_ 8ff#X	.
4C#_ 4e_ 4cc#_ 4gg#	.
8C#] 8e] 8cc#] 8aa	.
=106	=106
[4AA 4A 4e 4cc# 4aa	.
!LO:TX:b:i:t=cresc.	!
8AA_ 8A 8c# 8cc#	.
4AA'] 4A 4c# 4cc#	.
8GG#' 8G# 8dn 8ddn	.
4FF#' 4F# 4e 4ee	.
8EE' 8E 8f# 8ff#	.
4DDn' 4Dn 4g# 4gg#	.
8CC#' 8C# 8a 8aa	.
=107||	=107||
*k[b-e-a-d-]	*
*A-:	*
!LO:TX:a:t=p dolce	!
[8EE-L [8E- 8gn 8ggn	.
8EE-_ 8E-] 8a- 8aa-	.
8EE-J_ 8A- 8cn 8ee-	.
8EE-L_ [8Fn 8c-X 8ddn	.
8EE-_ 8F] 8A- 8dd-X	.
8EE-J_ 8G 8B- 8b-	.
8EE-TL_ 8B- 8g [8ee-	.
8EE-T_ 8cn 8a- 8ee-_	.
8EE-TJ_ 8e- 8cc 8ee-_	.
8EE-TL_ 8dn 8f 8ee-_	.
8EE-T_ 8d-X 8b- 8ee-_	.
8EE-TJ] 8B- 8g 8ee-_	.
=108	=108
!LO:TX:b:i:t=cresc.	!
8GL 8Bn 8e- 8ee-_	.
8A- 8c 8ee-]	.
8CtJ 8E- 8cc 8aa-	.
8DntL 8F 8ff [8bb-X	.
8D-XT 8B-X 8b-X 8bb-_	.
8BB-XTJ 8G 8dd-X 8bb-]	.
8GGtL 8B- 8dd- 8aan 8bb- [8ddd-X	.
8FF 8A-X 8bb- 8ddd-]	.
[8EE-TJ 8G 8bb- 8dddn	.
16EE-TLL_ [16G 16bb- [16eee-	.
16EE-TJ] 16G] 16b- 16eee-_	.
8E-T 8d-X 8ff 8eee-]	.
16cL [16e- 16ee- 16dddn 16eee- 16fff	.
16B-JJ 16e-] 16dd-X 16ggg	.
=109	=109
!LO:TX:a:t=p dolce	!
[16E-LL [16cc 16aaa-	.
16E-_ 16cc] 16ddn	.
16E-_ [16c 16ee-	.
16E-_ 16c_ 16ddn	.
[16AA- 16E-_ 16c_ 16ee-	.
16AA-JJ_ 16E-] 16c_ 16gg	.
16AA-LL_ [16E- 16c_ 16aa-	.
16AA-_ 16E-_ 16c] 16bb-	.
16AA-_ 16E-_ [16c 16aa-	.
16AA-] 16E-_ 16c_ 16gg	.
[16AA- 16E-_ 16c_ 16aa-	.
16AA-JJ_ 16E-] 16c_ 16bb-	.
16AA-LL_ [16E- 16c_ 16ccc	.
16AA-_ 16E-_ 16c] 16ddd-X	.
16AA-_ 16E-_ [16c 16ccc	.
16AA-] 16E-_ 16c_ 16bbn	.
[16AA- 16E-_ 16c_ 16ccc	.
16AA-JJ_ 16E-] 16c_ 16ddd-	.
16AA-LL_ [16E- 16c_ 16dddn	.
16AA-_ 16E-_ 16c] 16eee-	.
16AA-_ 16E-_ [16c 16fff	.
16AA-] 16E-_ 16c_ 16eee-	.
[16AAn 16E-_ 16c_ 16ff	.
16AAJJ] 16E-] 16c_ 16fff	.
=110	=110
[16BB-LL [16E- 16c_ 16fff	.
16BB-_ 16E-_ 16c] 16eee-	.
16BB-_ 16E-_ [16d- 16ddd-	.
16BB-] 16E-_ 16d-_ 16ccc	.
[16BB- 16E-_ 16d-_ 16eee-	.
16BB-JJ_ 16E-] 16d-_ 16ddd-	.
16BB-LL_ [16E- 16d-_ 16ccc	.
16BB-_ 16E-_ 16d-] 16bb-	.
16BB-_ 16E-_ [16d- 16aan	.
16BB-] 16E-_ 16d-_ 16bb-	.
[16BB- 16E-_ 16d-_ 16ddd-	.
16BB-JJ_ 16E-] 16d-_ 16bb-	.
16BB-LL_ [16E- 16d-_ 16aa-X	.
16BB-_ 16E-_ 16d-] 16gg	.
16BB-_ 16E-_ [16d- 16ff#X	.
16BB-] 16E-_ 16d-_ 16gg	.
[16BB- 16E-_ 16d-_ 16bb-	.
16BB-JJ_ 16E-] 16d-_ 16gg	.
16BB-LL_ [16E- 16d-_ 16ffn	.
16BB-_ 16E-_ 16d-] 16ee-	.
16BB-_ 16E-_ [16d- 16ddn	.
16BB-] 16E-_ 16d-_ 16ee-	.
[16BB- 16E-_ 16d-_ 16ff	.
16BB-JJ] 16E-] 16d-] 16gg	.
=111	=111
[16CLL [16E- [16e- 16bb-	.
16C_ 16E-_ 16e-] 16gg	.
16C_ 16E-_ [16A- 16bb-	.
16C] 16E-_ 16A-_ 16aa-	.
[16C 16E-_ 16A-_ 16ccc	.
16CJJ] 16E-] 16A-_ 16aa-	.
[16D-LL [16F 16A-_ 16gg	.
16D-_ 16F_ 16A-] 16een	.
16D-_ 16F_ [16A- [16a- 16gg	.
16D-] 16F_ 16A-_ 16a-_ 16ff	.
[16D- 16F_ 16A-_ 16a-_ 16aa-	.
16D-JJ] 16F] 16A-] 16a-] 16ff	.
[16E-XLL [16G [16g 16ee-X	.
16E-_ 16G_ 16g] 16cc	.
16E-_ 16G_ [16B- [16g 16ee-	.
16E-] 16G_ 16B-_ 16g_ 16dd-	.
[16E-^ 16G_ 16B-_ 16g_ 16ff	.
16E-JJ_ 16G] 16B-] 16g] 16dd-	.
16E-LL_ [16A- [16c 16dd-	.
16E-_ 16A-_ 16c] 16bn	.
16E-_ 16A-_ [16c [16a- 16dd-	.
16E-] 16A-_ 16c_ 16a-_ 16cc	.
[16E-^ 16A-_ 16c_ 16a-_ 16ee-	.
16E-JJ_ 16A-] 16c_ 16a-_ 16cc	.
=112	=112
!LO:TX:b:i:t=cresc.	!
16E-LL_ [16A- 16c_ 16a-_ 16aa-	.
16E-_ 16A-_ 16c] 16a-] 16ee-	.
16E-_ 16A-_ [16c [16a- 16ccc	.
16E-] 16A-_ 16c_ 16a-_ 16aa-	.
[16E- 16A-_ 16c_ 16a-_ 16eee-	.
16E-JJ_ 16A-] 16c_ 16a-_ 16ccc	.
16E-LL_ [16A- 16c_ 16a-_ 16aaa-	.
16E-_ 16A-_ 16c] 16a-] 16ggg	.
16E-_ 16A-_ [16c [16a- 16fff	.
16E-] 16A-_ 16c_ 16a-_ 16eee-	.
[16E- 16A-_ 16c_ 16a-_ 16ddd-	.
16E-JJ_ 16A-] 16c] 16a-] 16ccc	.
16E-LL_ [16G [16b- 16bb-	p
16E-_ 16G_ 16b-] 16aan	.
16E-_ 16G_ [16B- [16e- 16aa-X	.
16E-] 16G_ 16B-_ 16e-_ 16gg	.
[16E- 16G_ 16B-_ 16e-_ 16ff	.
16E-JJ_ 16G_ 16B-_ 16e-_ 16ee-	.
16E-LL] 16G] 16B-_ 16e-_ 16dd-	.
16F 16A-X 16B-_ 16e-_ 16cc	.
16G 16B-] 16e-] 16b-	.
16A- 16c 16f 16a-X	.
16B- 16d- 16g	.
16A-JJ 16c 16f 16a-	.
=113	=113
!LO:TX:b:i:t=cresc.	!
16GLL 16B- [16e- 16b-	.
16F 16A- 16e-_ 16cc	.
16E- 16G 16e-_ 16dd-	.
16F 16A- 16e-_ 16cc	.
16G 16B- 16e-_ 16b-	.
16A-JJ 16c 16e-_ 16a-	.
16B-LL 16d- 16e-_ 16g	.
16A- 16c 16e-_ 16a-	.
16G 16B- 16e-_ 16b-	.
16A- 16c 16e-_ 16a-	.
16B- 16d- 16e-_ 16g	.
16cJJ 16e-_ 16f	.
16d-LL 16e-_ 16f	.
16c 16e-] 16f	.
16B- 16d- 16g [16ee-	.
16A- 16c 16a- 16ee-_	.
16G 16B- 16b- 16ee-_	.
16FJJ 16A- 16cc 16ee-_	.
16E-LL 16G 16dd- 16ee-_	.
16D- 16F 16ee-]	.
16C 16E- 16ff [16eee-	.
16BB- 16D- 16gg 16eee-_	.
16AA- 16C 16aa- 16eee-_	.
16GGJJ 16D- 16bb- 16eee-]	.
=114	=114
16AA-LL 16C [16e- 16ccc	.
16E- 16B- 16e-_ 16dd-	.
16A- 16c 16e-_ 16ee-	.
16B- 16e-_ 16dd-	.
16A- 16c 16e-_ 16cc	.
16B-JJ 16e-_ 16dd-	.
16A-LL 16c 16e-_ 16cc	.
16BB- 16G 16e-_ 16dd-	.
16C 16A- 16e-_ 16ee-	.
16D- 16B- 16e-_ 16dd-	.
16E- 16c 16e-_ 16cc	.
16GJJ 16d- 16e-_ 16b-	.
16A-LL 16c 16e-_ 16b-	.
16c 16e-] 16a-	.
16B- 16d- 16b- [16ee-	.
16A- 16c 16cc 16ee-_	.
16G 16B- 16dd- 16ee-_	.
16FJJ 16A- 16ee-_	.
16E-LL 16G 16ee-_ 16ff	.
16D- 16F 16ee-] 16gg	.
16C 16E- 16aa- [16eee-	.
16BB- 16D- 16bb- 16eee-_	.
16AA- 16E- 16ccc-X 16eee-]	.
16GG-XJJ 16e- 16aa- 16cccn	.
=115	=115
16FFLL 16A- [16a- 16ddd-	f
16GG-X 16C 16a-_	.
16FF 16D- 16a-_ 16b-	.
16EE- 16E- 16a-_ 16cc	.
16DD- 16F 16a-_ 16dd-	.
16EE-JJ 16G-X 16a-_ 16cc	.
16FFLL 16A- 16a-_ 16dd-	.
16G-X 16e- 16a-_ 16cc	.
16F 16d- 16a-_ 16dd-	.
16G-X 16e- 16a-_ 16cc	.
16F 16d- 16a-_ 16dd-	.
16E-JJ 16c 16a-_ 16ee-	.
16D-LL 16d- 16a-_ 16ff	p
16g-X 16a-] 16cc 16ee-	.
16f 16dd- 16ff [16aa-	.
16g-X 16cc 16ee- 16aa-_	.
16f 16dd- 16ff 16aa-_	.
16e-JJ 16g-X 16gg-X 16aa-_	.
!LO:TX:a:i:t=cresc.	!
16d-LL 16f 16aa-_	.
16D- 16en 16ggn 16aa-]	.
16D- 16f 16aa- [16aaa-	.
16E-X 16e-X 16gg 16aaa-_	.
16F 16d- 16aa- 16aaa-_	.
16F-XJJ 16dn 16bb- 16aaa-_	.
=116	=116
16E-LL 16c 16a- 16aaa-_	.
16Fn 16d- 16gg 16aaa-]	.
16D- 16c 16aa- [16eee-	.
16c 16a- 16ee- 16eee-_	.
16Bn 16gn 16ff 16eee-_	.
16cJJ 16a- 16ee- 16eee-_	.
16E-LL 16G 16dd- 16eee-_	.
16F 16A- 16cc 16eee-]	.
16E- 16G 16dd- [16eee-	.
16d- 16g 16b-X 16eee-_	.
16c 16f#X 16an 16eee-_	.
16d-JJ 16g 16b- 16eee-_	.
16cLL 16e- 16a-X 16eee-]	.
16Bn 16dn 16g 16gg	.
16c 16e- 16a- 16aa-X	.
16A-X 16c 16e- 16ee-	.
16G 16d-X 16fn 16ffn	.
16A-JJ 16c 16e- 16ee-	.
16E-LL 16G 16d- 16dd-X	.
16F 16A- 16c 16cc	.
16E- 16G 16d- 16dd-	.
16D-X 16G 16B-X 16bb-X	.
16C 16E- 16An 16ccc	.
16D-JJ 16G 16B- 16bb-	.
=117	=117
!LO:TX:b:i:t=dim.	!
[16CLL [16E- [16e- 16eee-	.
16C_ 16E-_ 16e-_ 16aa-	.
16C_ 16E-] 16e-_ [16aan	.
16C_ 16G-X 16e-_ 16aa_	.
16C] [16F 16e-] 16aa]	.
16FFJJ 16F] 16cc 16eee-	.
[16BB-LL [16B- 16f 16ddd-	.
16BB-_ 16B-_ 16f-X 16aa-X	.
16BB-_ 16B-] 16e- [16ggn	.
16BB-_ 16F-X [16d- 16gg_	.
16BB-] [16E- 16d-] 16gg]	.
16EE-JJ 16E-] 16b- 16ddd-	.
[16AA-XLL [16E- 16a-X 16ccc	.
16AA-_ 16E-_ 16d- 16ffn	.
16AA-_ 16E-] [16c [16ee-	.
16AA-_ 16Fn 16c_ 16ee-_	.
16AA-] [16E- 16c] 16ee-]	.
16EE-JJ 16E-] 16a- 16ccc	.
!LO:TX:b:i:t=cresc.	!
[16D-LL [16E- [16g 16bb-	.
16D-_ 16E-_ 16g] 16ff-X	.
16D-_ 16E-] [16Gn [16ee-	.
16D-_ 16Fn 16G_ 16ee-_	.
16D-] [16E- 16G] 16ee-]	.
16EE-JJ 16E-] 16dd- 16bb-	.
=118	=118
2.r	.
8E-'L 8e-	.
8E-' 8e-	.
8E-'J 8e-	.
8E-'L 8e-	.
8E-' 8e-	.
8E-'J 8e-	.
=119	=119
[8AA-'L 8E- 8e- [8g-X	pp
8AA-'] 8E- 8e- 8g-_	.
8E-'J 8e- 8g-_	.
[8BB--'L 8E- 8e- 8g-_	.
8BB--'] 8E- 8e- 8g-_	.
8E-'J 8e- 8g-_	.
[8AA-'L 8E- 8e- 8g-]	.
8AA-'] 8C 8e- 8gg-X	.
8C'tJ 8e- 8gg-	.
8C'L 8e- 8ff#X 8gg-X 8ccc	.
8C' 8e- 8eee-	.
8C'J 8e- 8ggg-X	.
=120	=120
[8AA-'L 8D- 8f [8fff	.
8AA-'] 8D- 8f 8fff_	.
8D-'J 8f 8fff_	.
[8BB-'L 8D- 8f 8fff_	.
8BB-'] 8D- 8f 8fff_	.
8D-'J 8f 8fff_	.
[8AA-'L 8D- 8f 8fff]	.
8AA-'] 8D- 8f 8ff	.
8D-'TJ 8f 8aa-	.
8D-'L 8f 8gg 8aa- 8ddd-	.
8D-' 8f 8eee-	.
8D-'J 8f 8fff	.
=121	=121
!LO:TX:a:i:t=cresc.	!
[8AA-L 8D- 8f-X [8gggn	.
8AA-] 8D- 8f-X 8ggg_	.
16D-L 16f-X 16ggg]	.
16CJJ 16e- 16aaa-	.
[8DD-L [8BB- 8D- 8fn [8aaa-	.
8DD-] 8BB-] 8f 8dd- 8aaa-_	.
16fL [16dd- 16aaa-]	.
16gJJ 16dd-] 16fff	.
[16EE-LL [16C 16g [16dd- [16fff	.
16EE-_ 16C_ 16a- 16dd-] 16fff_	.
16EE-_ 16C_ [16a- 16dd- 16fff_	.
16EE-] 16C] 16a-] 16cc 16fff_	.
[16a- [16cc 16fff]	.
16a-JJ] 16cc] 16eee-	.
[16EE-LL 16an [16cc [16eee-	.
16EE-_ 16b- 16cc] 16eee-_	.
16EE-_ [16b- 16cc 16eee-_	.
16EE-] 16b-] 16dd- 16eee-_	.
[16B- [16d- 16eee-]	.
16B-JJ] 16d-] 16gg	.
=122	=122
4FF-X 4A- 4d- 4aa-	p
8r	.
4FF-X 4A- 4d- 4bb-	.
8r	.
4FF-X 4A- [4g#X 4aa-	.
8g#_	.
4g#_	.
8g#]	.
=123	=123
4En 4Bn 4en 4g#X	.
8r	.
4D#X 4Bn 4f#X 4an	.
8r	.
!LO:TX:a:i:t=cresc.	!
4En 4g#X [4aa-X	.
8aa-_	.
4aa-_	.
8aa-_	.
=124	=124
4E- 4cn 4a- 4aa-]	p
16ee-LL	.
16eenJJ	.
[16E-XLL [16d- [16gn [16b- 16ee	.
16E-_ 16d-_ 16g_ 16b-_ 16ff	.
16E-_ 16d-_ 16g_ 16b-_ 16cc	.
16E-] 16d-] 16g] 16b-] 16dd-	.
16f	.
16gJJ	.
[16E-LL [16c [16a- 16b-	.
16E-_ 16c_ 16g 16a-_	.
16E-_ 16c_ 16a-_ 16b-	.
16E-] 16c] 16a-]	.
16c-X 16e-X	.
16cnJJ 16en	.
[16E-XLL 16c [16d- 16e [16g [16b-	.
16E-_ 16d-_ 16f 16g_ 16b-_	.
16E-_ 16An 16c 16d-_ 16g_ 16b-_	.
16E-] 16B- 16d-] 16g] 16b-]	.
16F [16d-	.
16GJJ 16d-_	.
=125	=125
16B-LL 16d-_	.
16G 16d-_	.
16B- 16d-] 16g	.
16A- 16c 16a-	.
16E- 16e- 16a- 16cc-X	.
16EnJJ 16en 16g 16ccn	.
16EnLL 16c 16g 16cc	.
16F 16A- 16f 16dd-	.
16C 16c 16e-X 16an	.
16D- 16F 16d- 16b-	.
16FF 16A-X 16f [16dd-	.
16GGJJ [16B- 16f-X 16dd-_	.
16BB-LL 16B-] [16e- 16dd-_	.
16GG 16d- 16e-_ 16dd-_	.
16BB- 16B- 16e-_ 16dd-]	.
16AA-X 16c 16e-] 16cc	.
16FFn 16Fn 16A- [16dd-	.
16GGJJ 16F-X [16B- 16dd-_	.
16BB-LL [16E-X 16B-] 16dd-_	.
16GG 16E-_ 16d- 16dd-_	.
16BB- 16E-_ 16B- 16dd-]	.
16AA- 16E-] 16c 16cc	.
!LO:TX:b:i:t=cresc.	!
16FFn 16c 16a-X [16ee-X	.
16GGJJ 16B- 16b- 16ee-_	.
=126	=126
!LO:TX:a:t=rit.	!
4BB- 4E- 4d- 4g 4ee-]	.
8BB-' 8E- 8d- 8g 8ee-	.
8BB-'L 8E- 8d- 8g 8ee-	.
8BB-' 8E- 8d- 8e- 8ee- 8ff	.
8BB-'J 8E- 8d- 8e- 8ee- 8gg	.
8.BB-L 8.E- 8.d- 8.e- 8.ee- 8.gg	p
8.AA-;J 8.E- 8.c 8.e- 8.ee- 8.aa-	pp
4.r	.
==	==
*-	*-
